; LightBurn 1.6.03
; GRBL device profile, absolute coords
; Bounds: X9.97 Y11.42 to X90.03 Y133.57
G00 G17 G40 G21 G54
G90
M4
; Cut @ 500 mm/sec, 30% power
M8
G0 X9.965Y12.69
; Layer C00 Pass 1 of 30
G1 X9.991Y12.435S300F30000
G1 X10.065Y12.198
G1 X10.181Y11.983
G1 X10.336Y11.796
G1 X10.523Y11.641
G1 X10.738Y11.525
G1 X10.975Y11.451
G1 X11.23Y11.426
G1 X11.485Y11.451
G1 X11.722Y11.525
G1 X11.937Y11.641
G1 X12.124Y11.796
G1 X12.279Y11.983
G1 X12.395Y12.198
G1 X12.469Y12.435
G1 X12.495Y12.69
G1 X12.469Y12.945
G1 X12.395Y13.182
G1 X12.279Y13.397
G1 X12.124Y13.584
G1 X11.937Y13.739
G1 X11.722Y13.855
G1 X11.485Y13.929
G1 X11.23Y13.955
G1 X10.975Y13.929
G1 X10.738Y13.855
G1 X10.523Y13.739
G1 X10.336Y13.584
G1 X10.181Y13.397
G1 X10.065Y13.182
G1 X9.991Y12.945
G1 X9.965Y12.69
; Layer C00 Pass 2 of 30
G1 X9.991Y12.435
G1 X10.065Y12.198
G1 X10.181Y11.983
G1 X10.336Y11.796
G1 X10.523Y11.641
G1 X10.738Y11.525
G1 X10.975Y11.451
G1 X11.23Y11.426
G1 X11.485Y11.451
G1 X11.722Y11.525
G1 X11.937Y11.641
G1 X12.124Y11.796
G1 X12.279Y11.983
G1 X12.395Y12.198
G1 X12.469Y12.435
G1 X12.495Y12.69
G1 X12.469Y12.945
G1 X12.395Y13.182
G1 X12.279Y13.397
G1 X12.124Y13.584
G1 X11.937Y13.739
G1 X11.722Y13.855
G1 X11.485Y13.929
G1 X11.23Y13.955
G1 X10.975Y13.929
G1 X10.738Y13.855
G1 X10.523Y13.739
G1 X10.336Y13.584
G1 X10.181Y13.397
G1 X10.065Y13.182
G1 X9.991Y12.945
G1 X9.965Y12.69
; Layer C00 Pass 3 of 30
G1 X9.991Y12.435
G1 X10.065Y12.198
G1 X10.181Y11.983
G1 X10.336Y11.796
G1 X10.523Y11.641
G1 X10.738Y11.525
G1 X10.975Y11.451
G1 X11.23Y11.426
G1 X11.485Y11.451
G1 X11.722Y11.525
G1 X11.937Y11.641
G1 X12.124Y11.796
G1 X12.279Y11.983
G1 X12.395Y12.198
G1 X12.469Y12.435
G1 X12.495Y12.69
G1 X12.469Y12.945
G1 X12.395Y13.182
G1 X12.279Y13.397
G1 X12.124Y13.584
G1 X11.937Y13.739
G1 X11.722Y13.855
G1 X11.485Y13.929
G1 X11.23Y13.955
G1 X10.975Y13.929
G1 X10.738Y13.855
G1 X10.523Y13.739
G1 X10.336Y13.584
G1 X10.181Y13.397
G1 X10.065Y13.182
G1 X9.991Y12.945
G1 X9.965Y12.69
; Layer C00 Pass 4 of 30
G1 X9.991Y12.435
G1 X10.065Y12.198
G1 X10.181Y11.983
G1 X10.336Y11.796
G1 X10.523Y11.641
G1 X10.738Y11.525
G1 X10.975Y11.451
G1 X11.23Y11.426
G1 X11.485Y11.451
G1 X11.722Y11.525
G1 X11.937Y11.641
G1 X12.124Y11.796
G1 X12.279Y11.983
G1 X12.395Y12.198
G1 X12.469Y12.435
G1 X12.495Y12.69
G1 X12.469Y12.945
G1 X12.395Y13.182
G1 X12.279Y13.397
G1 X12.124Y13.584
G1 X11.937Y13.739
G1 X11.722Y13.855
G1 X11.485Y13.929
G1 X11.23Y13.955
G1 X10.975Y13.929
G1 X10.738Y13.855
G1 X10.523Y13.739
G1 X10.336Y13.584
G1 X10.181Y13.397
G1 X10.065Y13.182
G1 X9.991Y12.945
G1 X9.965Y12.69
; Layer C00 Pass 5 of 30
G1 X9.991Y12.435
G1 X10.065Y12.198
G1 X10.181Y11.983
G1 X10.336Y11.796
G1 X10.523Y11.641
G1 X10.738Y11.525
G1 X10.975Y11.451
G1 X11.23Y11.426
G1 X11.485Y11.451
G1 X11.722Y11.525
G1 X11.937Y11.641
G1 X12.124Y11.796
G1 X12.279Y11.983
G1 X12.395Y12.198
G1 X12.469Y12.435
G1 X12.495Y12.69
G1 X12.469Y12.945
G1 X12.395Y13.182
G1 X12.279Y13.397
G1 X12.124Y13.584
G1 X11.937Y13.739
G1 X11.722Y13.855
G1 X11.485Y13.929
G1 X11.23Y13.955
G1 X10.975Y13.929
G1 X10.738Y13.855
G1 X10.523Y13.739
G1 X10.336Y13.584
G1 X10.181Y13.397
G1 X10.065Y13.182
G1 X9.991Y12.945
G1 X9.965Y12.69
; Layer C00 Pass 6 of 30
G1 X9.991Y12.435
G1 X10.065Y12.198
G1 X10.181Y11.983
G1 X10.336Y11.796
G1 X10.523Y11.641
G1 X10.738Y11.525
G1 X10.975Y11.451
G1 X11.23Y11.426
G1 X11.485Y11.451
G1 X11.722Y11.525
G1 X11.937Y11.641
G1 X12.124Y11.796
G1 X12.279Y11.983
G1 X12.395Y12.198
G1 X12.469Y12.435
G1 X12.495Y12.69
G1 X12.469Y12.945
G1 X12.395Y13.182
G1 X12.279Y13.397
G1 X12.124Y13.584
G1 X11.937Y13.739
G1 X11.722Y13.855
G1 X11.485Y13.929
G1 X11.23Y13.955
G1 X10.975Y13.929
G1 X10.738Y13.855
G1 X10.523Y13.739
G1 X10.336Y13.584
G1 X10.181Y13.397
G1 X10.065Y13.182
G1 X9.991Y12.945
G1 X9.965Y12.69
; Layer C00 Pass 7 of 30
G1 X9.991Y12.435
G1 X10.065Y12.198
G1 X10.181Y11.983
G1 X10.336Y11.796
G1 X10.523Y11.641
G1 X10.738Y11.525
G1 X10.975Y11.451
G1 X11.23Y11.426
G1 X11.485Y11.451
G1 X11.722Y11.525
G1 X11.937Y11.641
G1 X12.124Y11.796
G1 X12.279Y11.983
G1 X12.395Y12.198
G1 X12.469Y12.435
G1 X12.495Y12.69
G1 X12.469Y12.945
G1 X12.395Y13.182
G1 X12.279Y13.397
G1 X12.124Y13.584
G1 X11.937Y13.739
G1 X11.722Y13.855
G1 X11.485Y13.929
G1 X11.23Y13.955
G1 X10.975Y13.929
G1 X10.738Y13.855
G1 X10.523Y13.739
G1 X10.336Y13.584
G1 X10.181Y13.397
G1 X10.065Y13.182
G1 X9.991Y12.945
G1 X9.965Y12.69
; Layer C00 Pass 8 of 30
G1 X9.991Y12.435
G1 X10.065Y12.198
G1 X10.181Y11.983
G1 X10.336Y11.796
G1 X10.523Y11.641
G1 X10.738Y11.525
G1 X10.975Y11.451
G1 X11.23Y11.426
G1 X11.485Y11.451
G1 X11.722Y11.525
G1 X11.937Y11.641
G1 X12.124Y11.796
G1 X12.279Y11.983
G1 X12.395Y12.198
G1 X12.469Y12.435
G1 X12.495Y12.69
G1 X12.469Y12.945
G1 X12.395Y13.182
G1 X12.279Y13.397
G1 X12.124Y13.584
G1 X11.937Y13.739
G1 X11.722Y13.855
G1 X11.485Y13.929
G1 X11.23Y13.955
G1 X10.975Y13.929
G1 X10.738Y13.855
G1 X10.523Y13.739
G1 X10.336Y13.584
G1 X10.181Y13.397
G1 X10.065Y13.182
G1 X9.991Y12.945
G1 X9.965Y12.69
; Layer C00 Pass 9 of 30
G1 X9.991Y12.435
G1 X10.065Y12.198
G1 X10.181Y11.983
G1 X10.336Y11.796
G1 X10.523Y11.641
G1 X10.738Y11.525
G1 X10.975Y11.451
G1 X11.23Y11.426
G1 X11.485Y11.451
G1 X11.722Y11.525
G1 X11.937Y11.641
G1 X12.124Y11.796
G1 X12.279Y11.983
G1 X12.395Y12.198
G1 X12.469Y12.435
G1 X12.495Y12.69
G1 X12.469Y12.945
G1 X12.395Y13.182
G1 X12.279Y13.397
G1 X12.124Y13.584
G1 X11.937Y13.739
G1 X11.722Y13.855
G1 X11.485Y13.929
G1 X11.23Y13.955
G1 X10.975Y13.929
G1 X10.738Y13.855
G1 X10.523Y13.739
G1 X10.336Y13.584
G1 X10.181Y13.397
G1 X10.065Y13.182
G1 X9.991Y12.945
G1 X9.965Y12.69
; Layer C00 Pass 10 of 30
G1 X9.991Y12.435
G1 X10.065Y12.198
G1 X10.181Y11.983
G1 X10.336Y11.796
G1 X10.523Y11.641
G1 X10.738Y11.525
G1 X10.975Y11.451
G1 X11.23Y11.426
G1 X11.485Y11.451
G1 X11.722Y11.525
G1 X11.937Y11.641
G1 X12.124Y11.796
G1 X12.279Y11.983
G1 X12.395Y12.198
G1 X12.469Y12.435
G1 X12.495Y12.69
G1 X12.469Y12.945
G1 X12.395Y13.182
G1 X12.279Y13.397
G1 X12.124Y13.584
G1 X11.937Y13.739
G1 X11.722Y13.855
G1 X11.485Y13.929
G1 X11.23Y13.955
G1 X10.975Y13.929
G1 X10.738Y13.855
G1 X10.523Y13.739
G1 X10.336Y13.584
G1 X10.181Y13.397
G1 X10.065Y13.182
G1 X9.991Y12.945
G1 X9.965Y12.69
; Layer C00 Pass 11 of 30
G1 X9.991Y12.435
G1 X10.065Y12.198
G1 X10.181Y11.983
G1 X10.336Y11.796
G1 X10.523Y11.641
G1 X10.738Y11.525
G1 X10.975Y11.451
G1 X11.23Y11.426
G1 X11.485Y11.451
G1 X11.722Y11.525
G1 X11.937Y11.641
G1 X12.124Y11.796
G1 X12.279Y11.983
G1 X12.395Y12.198
G1 X12.469Y12.435
G1 X12.495Y12.69
G1 X12.469Y12.945
G1 X12.395Y13.182
G1 X12.279Y13.397
G1 X12.124Y13.584
G1 X11.937Y13.739
G1 X11.722Y13.855
G1 X11.485Y13.929
G1 X11.23Y13.955
G1 X10.975Y13.929
G1 X10.738Y13.855
G1 X10.523Y13.739
G1 X10.336Y13.584
G1 X10.181Y13.397
G1 X10.065Y13.182
G1 X9.991Y12.945
G1 X9.965Y12.69
; Layer C00 Pass 12 of 30
G1 X9.991Y12.435
G1 X10.065Y12.198
G1 X10.181Y11.983
G1 X10.336Y11.796
G1 X10.523Y11.641
G1 X10.738Y11.525
G1 X10.975Y11.451
G1 X11.23Y11.426
G1 X11.485Y11.451
G1 X11.722Y11.525
G1 X11.937Y11.641
G1 X12.124Y11.796
G1 X12.279Y11.983
G1 X12.395Y12.198
G1 X12.469Y12.435
G1 X12.495Y12.69
G1 X12.469Y12.945
G1 X12.395Y13.182
G1 X12.279Y13.397
G1 X12.124Y13.584
G1 X11.937Y13.739
G1 X11.722Y13.855
G1 X11.485Y13.929
G1 X11.23Y13.955
G1 X10.975Y13.929
G1 X10.738Y13.855
G1 X10.523Y13.739
G1 X10.336Y13.584
G1 X10.181Y13.397
G1 X10.065Y13.182
G1 X9.991Y12.945
G1 X9.965Y12.69
; Layer C00 Pass 13 of 30
G1 X9.991Y12.435
G1 X10.065Y12.198
G1 X10.181Y11.983
G1 X10.336Y11.796
G1 X10.523Y11.641
G1 X10.738Y11.525
G1 X10.975Y11.451
G1 X11.23Y11.426
G1 X11.485Y11.451
G1 X11.722Y11.525
G1 X11.937Y11.641
G1 X12.124Y11.796
G1 X12.279Y11.983
G1 X12.395Y12.198
G1 X12.469Y12.435
G1 X12.495Y12.69
G1 X12.469Y12.945
G1 X12.395Y13.182
G1 X12.279Y13.397
G1 X12.124Y13.584
G1 X11.937Y13.739
G1 X11.722Y13.855
G1 X11.485Y13.929
G1 X11.23Y13.955
G1 X10.975Y13.929
G1 X10.738Y13.855
G1 X10.523Y13.739
G1 X10.336Y13.584
G1 X10.181Y13.397
G1 X10.065Y13.182
G1 X9.991Y12.945
G1 X9.965Y12.69
; Layer C00 Pass 14 of 30
G1 X9.991Y12.435
G1 X10.065Y12.198
G1 X10.181Y11.983
G1 X10.336Y11.796
G1 X10.523Y11.641
G1 X10.738Y11.525
G1 X10.975Y11.451
G1 X11.23Y11.426
G1 X11.485Y11.451
G1 X11.722Y11.525
G1 X11.937Y11.641
G1 X12.124Y11.796
G1 X12.279Y11.983
G1 X12.395Y12.198
G1 X12.469Y12.435
G1 X12.495Y12.69
G1 X12.469Y12.945
G1 X12.395Y13.182
G1 X12.279Y13.397
G1 X12.124Y13.584
G1 X11.937Y13.739
G1 X11.722Y13.855
G1 X11.485Y13.929
G1 X11.23Y13.955
G1 X10.975Y13.929
G1 X10.738Y13.855
G1 X10.523Y13.739
G1 X10.336Y13.584
G1 X10.181Y13.397
G1 X10.065Y13.182
G1 X9.991Y12.945
G1 X9.965Y12.69
; Layer C00 Pass 15 of 30
G1 X9.991Y12.435
G1 X10.065Y12.198
G1 X10.181Y11.983
G1 X10.336Y11.796
G1 X10.523Y11.641
G1 X10.738Y11.525
G1 X10.975Y11.451
G1 X11.23Y11.426
G1 X11.485Y11.451
G1 X11.722Y11.525
G1 X11.937Y11.641
G1 X12.124Y11.796
G1 X12.279Y11.983
G1 X12.395Y12.198
G1 X12.469Y12.435
G1 X12.495Y12.69
G1 X12.469Y12.945
G1 X12.395Y13.182
G1 X12.279Y13.397
G1 X12.124Y13.584
G1 X11.937Y13.739
G1 X11.722Y13.855
G1 X11.485Y13.929
G1 X11.23Y13.955
G1 X10.975Y13.929
G1 X10.738Y13.855
G1 X10.523Y13.739
G1 X10.336Y13.584
G1 X10.181Y13.397
G1 X10.065Y13.182
G1 X9.991Y12.945
G1 X9.965Y12.69
; Layer C00 Pass 16 of 30
G1 X9.991Y12.435
G1 X10.065Y12.198
G1 X10.181Y11.983
G1 X10.336Y11.796
G1 X10.523Y11.641
G1 X10.738Y11.525
G1 X10.975Y11.451
G1 X11.23Y11.426
G1 X11.485Y11.451
G1 X11.722Y11.525
G1 X11.937Y11.641
G1 X12.124Y11.796
G1 X12.279Y11.983
G1 X12.395Y12.198
G1 X12.469Y12.435
G1 X12.495Y12.69
G1 X12.469Y12.945
G1 X12.395Y13.182
G1 X12.279Y13.397
G1 X12.124Y13.584
G1 X11.937Y13.739
G1 X11.722Y13.855
G1 X11.485Y13.929
G1 X11.23Y13.955
G1 X10.975Y13.929
G1 X10.738Y13.855
G1 X10.523Y13.739
G1 X10.336Y13.584
G1 X10.181Y13.397
G1 X10.065Y13.182
G1 X9.991Y12.945
G1 X9.965Y12.69
; Layer C00 Pass 17 of 30
G1 X9.991Y12.435
G1 X10.065Y12.198
G1 X10.181Y11.983
G1 X10.336Y11.796
G1 X10.523Y11.641
G1 X10.738Y11.525
G1 X10.975Y11.451
G1 X11.23Y11.426
G1 X11.485Y11.451
G1 X11.722Y11.525
G1 X11.937Y11.641
G1 X12.124Y11.796
G1 X12.279Y11.983
G1 X12.395Y12.198
G1 X12.469Y12.435
G1 X12.495Y12.69
G1 X12.469Y12.945
G1 X12.395Y13.182
G1 X12.279Y13.397
G1 X12.124Y13.584
G1 X11.937Y13.739
G1 X11.722Y13.855
G1 X11.485Y13.929
G1 X11.23Y13.955
G1 X10.975Y13.929
G1 X10.738Y13.855
G1 X10.523Y13.739
G1 X10.336Y13.584
G1 X10.181Y13.397
G1 X10.065Y13.182
G1 X9.991Y12.945
G1 X9.965Y12.69
; Layer C00 Pass 18 of 30
G1 X9.991Y12.435
G1 X10.065Y12.198
G1 X10.181Y11.983
G1 X10.336Y11.796
G1 X10.523Y11.641
G1 X10.738Y11.525
G1 X10.975Y11.451
G1 X11.23Y11.426
G1 X11.485Y11.451
G1 X11.722Y11.525
G1 X11.937Y11.641
G1 X12.124Y11.796
G1 X12.279Y11.983
G1 X12.395Y12.198
G1 X12.469Y12.435
G1 X12.495Y12.69
G1 X12.469Y12.945
G1 X12.395Y13.182
G1 X12.279Y13.397
G1 X12.124Y13.584
G1 X11.937Y13.739
G1 X11.722Y13.855
G1 X11.485Y13.929
G1 X11.23Y13.955
G1 X10.975Y13.929
G1 X10.738Y13.855
G1 X10.523Y13.739
G1 X10.336Y13.584
G1 X10.181Y13.397
G1 X10.065Y13.182
G1 X9.991Y12.945
G1 X9.965Y12.69
; Layer C00 Pass 19 of 30
G1 X9.991Y12.435
G1 X10.065Y12.198
G1 X10.181Y11.983
G1 X10.336Y11.796
G1 X10.523Y11.641
G1 X10.738Y11.525
G1 X10.975Y11.451
G1 X11.23Y11.426
G1 X11.485Y11.451
G1 X11.722Y11.525
G1 X11.937Y11.641
G1 X12.124Y11.796
G1 X12.279Y11.983
G1 X12.395Y12.198
G1 X12.469Y12.435
G1 X12.495Y12.69
G1 X12.469Y12.945
G1 X12.395Y13.182
G1 X12.279Y13.397
G1 X12.124Y13.584
G1 X11.937Y13.739
G1 X11.722Y13.855
G1 X11.485Y13.929
G1 X11.23Y13.955
G1 X10.975Y13.929
G1 X10.738Y13.855
G1 X10.523Y13.739
G1 X10.336Y13.584
G1 X10.181Y13.397
G1 X10.065Y13.182
G1 X9.991Y12.945
G1 X9.965Y12.69
; Layer C00 Pass 20 of 30
G1 X9.991Y12.435
G1 X10.065Y12.198
G1 X10.181Y11.983
G1 X10.336Y11.796
G1 X10.523Y11.641
G1 X10.738Y11.525
G1 X10.975Y11.451
G1 X11.23Y11.426
G1 X11.485Y11.451
G1 X11.722Y11.525
G1 X11.937Y11.641
G1 X12.124Y11.796
G1 X12.279Y11.983
G1 X12.395Y12.198
G1 X12.469Y12.435
G1 X12.495Y12.69
G1 X12.469Y12.945
G1 X12.395Y13.182
G1 X12.279Y13.397
G1 X12.124Y13.584
G1 X11.937Y13.739
G1 X11.722Y13.855
G1 X11.485Y13.929
G1 X11.23Y13.955
G1 X10.975Y13.929
G1 X10.738Y13.855
G1 X10.523Y13.739
G1 X10.336Y13.584
G1 X10.181Y13.397
G1 X10.065Y13.182
G1 X9.991Y12.945
G1 X9.965Y12.69
; Layer C00 Pass 21 of 30
G1 X9.991Y12.435
G1 X10.065Y12.198
G1 X10.181Y11.983
G1 X10.336Y11.796
G1 X10.523Y11.641
G1 X10.738Y11.525
G1 X10.975Y11.451
G1 X11.23Y11.426
G1 X11.485Y11.451
G1 X11.722Y11.525
G1 X11.937Y11.641
G1 X12.124Y11.796
G1 X12.279Y11.983
G1 X12.395Y12.198
G1 X12.469Y12.435
G1 X12.495Y12.69
G1 X12.469Y12.945
G1 X12.395Y13.182
G1 X12.279Y13.397
G1 X12.124Y13.584
G1 X11.937Y13.739
G1 X11.722Y13.855
G1 X11.485Y13.929
G1 X11.23Y13.955
G1 X10.975Y13.929
G1 X10.738Y13.855
G1 X10.523Y13.739
G1 X10.336Y13.584
G1 X10.181Y13.397
G1 X10.065Y13.182
G1 X9.991Y12.945
G1 X9.965Y12.69
; Layer C00 Pass 22 of 30
G1 X9.991Y12.435
G1 X10.065Y12.198
G1 X10.181Y11.983
G1 X10.336Y11.796
G1 X10.523Y11.641
G1 X10.738Y11.525
G1 X10.975Y11.451
G1 X11.23Y11.426
G1 X11.485Y11.451
G1 X11.722Y11.525
G1 X11.937Y11.641
G1 X12.124Y11.796
G1 X12.279Y11.983
G1 X12.395Y12.198
G1 X12.469Y12.435
G1 X12.495Y12.69
G1 X12.469Y12.945
G1 X12.395Y13.182
G1 X12.279Y13.397
G1 X12.124Y13.584
G1 X11.937Y13.739
G1 X11.722Y13.855
G1 X11.485Y13.929
G1 X11.23Y13.955
G1 X10.975Y13.929
G1 X10.738Y13.855
G1 X10.523Y13.739
G1 X10.336Y13.584
G1 X10.181Y13.397
G1 X10.065Y13.182
G1 X9.991Y12.945
G1 X9.965Y12.69
; Layer C00 Pass 23 of 30
G1 X9.991Y12.435
G1 X10.065Y12.198
G1 X10.181Y11.983
G1 X10.336Y11.796
G1 X10.523Y11.641
G1 X10.738Y11.525
G1 X10.975Y11.451
G1 X11.23Y11.426
G1 X11.485Y11.451
G1 X11.722Y11.525
G1 X11.937Y11.641
G1 X12.124Y11.796
G1 X12.279Y11.983
G1 X12.395Y12.198
G1 X12.469Y12.435
G1 X12.495Y12.69
G1 X12.469Y12.945
G1 X12.395Y13.182
G1 X12.279Y13.397
G1 X12.124Y13.584
G1 X11.937Y13.739
G1 X11.722Y13.855
G1 X11.485Y13.929
G1 X11.23Y13.955
G1 X10.975Y13.929
G1 X10.738Y13.855
G1 X10.523Y13.739
G1 X10.336Y13.584
G1 X10.181Y13.397
G1 X10.065Y13.182
G1 X9.991Y12.945
G1 X9.965Y12.69
; Layer C00 Pass 24 of 30
G1 X9.991Y12.435
G1 X10.065Y12.198
G1 X10.181Y11.983
G1 X10.336Y11.796
G1 X10.523Y11.641
G1 X10.738Y11.525
G1 X10.975Y11.451
G1 X11.23Y11.426
G1 X11.485Y11.451
G1 X11.722Y11.525
G1 X11.937Y11.641
G1 X12.124Y11.796
G1 X12.279Y11.983
G1 X12.395Y12.198
G1 X12.469Y12.435
G1 X12.495Y12.69
G1 X12.469Y12.945
G1 X12.395Y13.182
G1 X12.279Y13.397
G1 X12.124Y13.584
G1 X11.937Y13.739
G1 X11.722Y13.855
G1 X11.485Y13.929
G1 X11.23Y13.955
G1 X10.975Y13.929
G1 X10.738Y13.855
G1 X10.523Y13.739
G1 X10.336Y13.584
G1 X10.181Y13.397
G1 X10.065Y13.182
G1 X9.991Y12.945
G1 X9.965Y12.69
; Layer C00 Pass 25 of 30
G1 X9.991Y12.435
G1 X10.065Y12.198
G1 X10.181Y11.983
G1 X10.336Y11.796
G1 X10.523Y11.641
G1 X10.738Y11.525
G1 X10.975Y11.451
G1 X11.23Y11.426
G1 X11.485Y11.451
G1 X11.722Y11.525
G1 X11.937Y11.641
G1 X12.124Y11.796
G1 X12.279Y11.983
G1 X12.395Y12.198
G1 X12.469Y12.435
G1 X12.495Y12.69
G1 X12.469Y12.945
G1 X12.395Y13.182
G1 X12.279Y13.397
G1 X12.124Y13.584
G1 X11.937Y13.739
G1 X11.722Y13.855
G1 X11.485Y13.929
G1 X11.23Y13.955
G1 X10.975Y13.929
G1 X10.738Y13.855
G1 X10.523Y13.739
G1 X10.336Y13.584
G1 X10.181Y13.397
G1 X10.065Y13.182
G1 X9.991Y12.945
G1 X9.965Y12.69
; Layer C00 Pass 26 of 30
G1 X9.991Y12.435
G1 X10.065Y12.198
G1 X10.181Y11.983
G1 X10.336Y11.796
G1 X10.523Y11.641
G1 X10.738Y11.525
G1 X10.975Y11.451
G1 X11.23Y11.426
G1 X11.485Y11.451
G1 X11.722Y11.525
G1 X11.937Y11.641
G1 X12.124Y11.796
G1 X12.279Y11.983
G1 X12.395Y12.198
G1 X12.469Y12.435
G1 X12.495Y12.69
G1 X12.469Y12.945
G1 X12.395Y13.182
G1 X12.279Y13.397
G1 X12.124Y13.584
G1 X11.937Y13.739
G1 X11.722Y13.855
G1 X11.485Y13.929
G1 X11.23Y13.955
G1 X10.975Y13.929
G1 X10.738Y13.855
G1 X10.523Y13.739
G1 X10.336Y13.584
G1 X10.181Y13.397
G1 X10.065Y13.182
G1 X9.991Y12.945
G1 X9.965Y12.69
; Layer C00 Pass 27 of 30
G1 X9.991Y12.435
G1 X10.065Y12.198
G1 X10.181Y11.983
G1 X10.336Y11.796
G1 X10.523Y11.641
G1 X10.738Y11.525
G1 X10.975Y11.451
G1 X11.23Y11.426
G1 X11.485Y11.451
G1 X11.722Y11.525
G1 X11.937Y11.641
G1 X12.124Y11.796
G1 X12.279Y11.983
G1 X12.395Y12.198
G1 X12.469Y12.435
G1 X12.495Y12.69
G1 X12.469Y12.945
G1 X12.395Y13.182
G1 X12.279Y13.397
G1 X12.124Y13.584
G1 X11.937Y13.739
G1 X11.722Y13.855
G1 X11.485Y13.929
G1 X11.23Y13.955
G1 X10.975Y13.929
G1 X10.738Y13.855
G1 X10.523Y13.739
G1 X10.336Y13.584
G1 X10.181Y13.397
G1 X10.065Y13.182
G1 X9.991Y12.945
G1 X9.965Y12.69
; Layer C00 Pass 28 of 30
G1 X9.991Y12.435
G1 X10.065Y12.198
G1 X10.181Y11.983
G1 X10.336Y11.796
G1 X10.523Y11.641
G1 X10.738Y11.525
G1 X10.975Y11.451
G1 X11.23Y11.426
G1 X11.485Y11.451
G1 X11.722Y11.525
G1 X11.937Y11.641
G1 X12.124Y11.796
G1 X12.279Y11.983
G1 X12.395Y12.198
G1 X12.469Y12.435
G1 X12.495Y12.69
G1 X12.469Y12.945
G1 X12.395Y13.182
G1 X12.279Y13.397
G1 X12.124Y13.584
G1 X11.937Y13.739
G1 X11.722Y13.855
G1 X11.485Y13.929
G1 X11.23Y13.955
G1 X10.975Y13.929
G1 X10.738Y13.855
G1 X10.523Y13.739
G1 X10.336Y13.584
G1 X10.181Y13.397
G1 X10.065Y13.182
G1 X9.991Y12.945
G1 X9.965Y12.69
; Layer C00 Pass 29 of 30
G1 X9.991Y12.435
G1 X10.065Y12.198
G1 X10.181Y11.983
G1 X10.336Y11.796
G1 X10.523Y11.641
G1 X10.738Y11.525
G1 X10.975Y11.451
G1 X11.23Y11.426
G1 X11.485Y11.451
G1 X11.722Y11.525
G1 X11.937Y11.641
G1 X12.124Y11.796
G1 X12.279Y11.983
G1 X12.395Y12.198
G1 X12.469Y12.435
G1 X12.495Y12.69
G1 X12.469Y12.945
G1 X12.395Y13.182
G1 X12.279Y13.397
G1 X12.124Y13.584
G1 X11.937Y13.739
G1 X11.722Y13.855
G1 X11.485Y13.929
G1 X11.23Y13.955
G1 X10.975Y13.929
G1 X10.738Y13.855
G1 X10.523Y13.739
G1 X10.336Y13.584
G1 X10.181Y13.397
G1 X10.065Y13.182
G1 X9.991Y12.945
G1 X9.965Y12.69
; Layer C00 Pass 30 of 30
G1 X9.991Y12.435
G1 X10.065Y12.198
G1 X10.181Y11.983
G1 X10.336Y11.796
G1 X10.523Y11.641
G1 X10.738Y11.525
G1 X10.975Y11.451
G1 X11.23Y11.426
G1 X11.485Y11.451
G1 X11.722Y11.525
G1 X11.937Y11.641
G1 X12.124Y11.796
G1 X12.279Y11.983
G1 X12.395Y12.198
G1 X12.469Y12.435
G1 X12.495Y12.69
G1 X12.469Y12.945
G1 X12.395Y13.182
G1 X12.279Y13.397
G1 X12.124Y13.584
G1 X11.937Y13.739
G1 X11.722Y13.855
G1 X11.485Y13.929
G1 X11.23Y13.955
G1 X10.975Y13.929
G1 X10.738Y13.855
G1 X10.523Y13.739
G1 X10.336Y13.584
G1 X10.181Y13.397
G1 X10.065Y13.182
G1 X9.991Y12.945
G1 X9.965Y12.69
G0 X15.905Y20.275
; Layer C00 Pass 1 of 30
G1 X15.946Y19.872
G1 X16.062Y19.497
G1 X16.247Y19.157
G1 X16.491Y18.861
G1 X16.787Y18.617
G1 X17.127Y18.432
G1 X17.502Y18.316
G1 X17.905Y18.275
G1 X18.308Y18.316
G1 X18.683Y18.432
G1 X19.023Y18.617
G1 X19.319Y18.861
G1 X19.563Y19.157
G1 X19.748Y19.497
G1 X19.864Y19.872
G1 X19.905Y20.275
G1 X19.864Y20.678
G1 X19.748Y21.053
G1 X19.563Y21.393
G1 X19.319Y21.689
G1 X19.023Y21.933
G1 X18.683Y22.118
G1 X18.308Y22.234
G1 X17.905Y22.275
G1 X17.502Y22.234
G1 X17.127Y22.118
G1 X16.787Y21.933
G1 X16.491Y21.689
G1 X16.247Y21.393
G1 X16.062Y21.053
G1 X15.946Y20.678
G1 X15.905Y20.275
; Layer C00 Pass 2 of 30
G1 X15.946Y19.872
G1 X16.062Y19.497
G1 X16.247Y19.157
G1 X16.491Y18.861
G1 X16.787Y18.617
G1 X17.127Y18.432
G1 X17.502Y18.316
G1 X17.905Y18.275
G1 X18.308Y18.316
G1 X18.683Y18.432
G1 X19.023Y18.617
G1 X19.319Y18.861
G1 X19.563Y19.157
G1 X19.748Y19.497
G1 X19.864Y19.872
G1 X19.905Y20.275
G1 X19.864Y20.678
G1 X19.748Y21.053
G1 X19.563Y21.393
G1 X19.319Y21.689
G1 X19.023Y21.933
G1 X18.683Y22.118
G1 X18.308Y22.234
G1 X17.905Y22.275
G1 X17.502Y22.234
G1 X17.127Y22.118
G1 X16.787Y21.933
G1 X16.491Y21.689
G1 X16.247Y21.393
G1 X16.062Y21.053
G1 X15.946Y20.678
G1 X15.905Y20.275
; Layer C00 Pass 3 of 30
G1 X15.946Y19.872
G1 X16.062Y19.497
G1 X16.247Y19.157
G1 X16.491Y18.861
G1 X16.787Y18.617
G1 X17.127Y18.432
G1 X17.502Y18.316
G1 X17.905Y18.275
G1 X18.308Y18.316
G1 X18.683Y18.432
G1 X19.023Y18.617
G1 X19.319Y18.861
G1 X19.563Y19.157
G1 X19.748Y19.497
G1 X19.864Y19.872
G1 X19.905Y20.275
G1 X19.864Y20.678
G1 X19.748Y21.053
G1 X19.563Y21.393
G1 X19.319Y21.689
G1 X19.023Y21.933
G1 X18.683Y22.118
G1 X18.308Y22.234
G1 X17.905Y22.275
G1 X17.502Y22.234
G1 X17.127Y22.118
G1 X16.787Y21.933
G1 X16.491Y21.689
G1 X16.247Y21.393
G1 X16.062Y21.053
G1 X15.946Y20.678
G1 X15.905Y20.275
; Layer C00 Pass 4 of 30
G1 X15.946Y19.872
G1 X16.062Y19.497
G1 X16.247Y19.157
G1 X16.491Y18.861
G1 X16.787Y18.617
G1 X17.127Y18.432
G1 X17.502Y18.316
G1 X17.905Y18.275
G1 X18.308Y18.316
G1 X18.683Y18.432
G1 X19.023Y18.617
G1 X19.319Y18.861
G1 X19.563Y19.157
G1 X19.748Y19.497
G1 X19.864Y19.872
G1 X19.905Y20.275
G1 X19.864Y20.678
G1 X19.748Y21.053
G1 X19.563Y21.393
G1 X19.319Y21.689
G1 X19.023Y21.933
G1 X18.683Y22.118
G1 X18.308Y22.234
G1 X17.905Y22.275
G1 X17.502Y22.234
G1 X17.127Y22.118
G1 X16.787Y21.933
G1 X16.491Y21.689
G1 X16.247Y21.393
G1 X16.062Y21.053
G1 X15.946Y20.678
G1 X15.905Y20.275
; Layer C00 Pass 5 of 30
G1 X15.946Y19.872
G1 X16.062Y19.497
G1 X16.247Y19.157
G1 X16.491Y18.861
G1 X16.787Y18.617
G1 X17.127Y18.432
G1 X17.502Y18.316
G1 X17.905Y18.275
G1 X18.308Y18.316
G1 X18.683Y18.432
G1 X19.023Y18.617
G1 X19.319Y18.861
G1 X19.563Y19.157
G1 X19.748Y19.497
G1 X19.864Y19.872
G1 X19.905Y20.275
G1 X19.864Y20.678
G1 X19.748Y21.053
G1 X19.563Y21.393
G1 X19.319Y21.689
G1 X19.023Y21.933
G1 X18.683Y22.118
G1 X18.308Y22.234
G1 X17.905Y22.275
G1 X17.502Y22.234
G1 X17.127Y22.118
G1 X16.787Y21.933
G1 X16.491Y21.689
G1 X16.247Y21.393
G1 X16.062Y21.053
G1 X15.946Y20.678
G1 X15.905Y20.275
; Layer C00 Pass 6 of 30
G1 X15.946Y19.872
G1 X16.062Y19.497
G1 X16.247Y19.157
G1 X16.491Y18.861
G1 X16.787Y18.617
G1 X17.127Y18.432
G1 X17.502Y18.316
G1 X17.905Y18.275
G1 X18.308Y18.316
G1 X18.683Y18.432
G1 X19.023Y18.617
G1 X19.319Y18.861
G1 X19.563Y19.157
G1 X19.748Y19.497
G1 X19.864Y19.872
G1 X19.905Y20.275
G1 X19.864Y20.678
G1 X19.748Y21.053
G1 X19.563Y21.393
G1 X19.319Y21.689
G1 X19.023Y21.933
G1 X18.683Y22.118
G1 X18.308Y22.234
G1 X17.905Y22.275
G1 X17.502Y22.234
G1 X17.127Y22.118
G1 X16.787Y21.933
G1 X16.491Y21.689
G1 X16.247Y21.393
G1 X16.062Y21.053
G1 X15.946Y20.678
G1 X15.905Y20.275
; Layer C00 Pass 7 of 30
G1 X15.946Y19.872
G1 X16.062Y19.497
G1 X16.247Y19.157
G1 X16.491Y18.861
G1 X16.787Y18.617
G1 X17.127Y18.432
G1 X17.502Y18.316
G1 X17.905Y18.275
G1 X18.308Y18.316
G1 X18.683Y18.432
G1 X19.023Y18.617
G1 X19.319Y18.861
G1 X19.563Y19.157
G1 X19.748Y19.497
G1 X19.864Y19.872
G1 X19.905Y20.275
G1 X19.864Y20.678
G1 X19.748Y21.053
G1 X19.563Y21.393
G1 X19.319Y21.689
G1 X19.023Y21.933
G1 X18.683Y22.118
G1 X18.308Y22.234
G1 X17.905Y22.275
G1 X17.502Y22.234
G1 X17.127Y22.118
G1 X16.787Y21.933
G1 X16.491Y21.689
G1 X16.247Y21.393
G1 X16.062Y21.053
G1 X15.946Y20.678
G1 X15.905Y20.275
; Layer C00 Pass 8 of 30
G1 X15.946Y19.872
G1 X16.062Y19.497
G1 X16.247Y19.157
G1 X16.491Y18.861
G1 X16.787Y18.617
G1 X17.127Y18.432
G1 X17.502Y18.316
G1 X17.905Y18.275
G1 X18.308Y18.316
G1 X18.683Y18.432
G1 X19.023Y18.617
G1 X19.319Y18.861
G1 X19.563Y19.157
G1 X19.748Y19.497
G1 X19.864Y19.872
G1 X19.905Y20.275
G1 X19.864Y20.678
G1 X19.748Y21.053
G1 X19.563Y21.393
G1 X19.319Y21.689
G1 X19.023Y21.933
G1 X18.683Y22.118
G1 X18.308Y22.234
G1 X17.905Y22.275
G1 X17.502Y22.234
G1 X17.127Y22.118
G1 X16.787Y21.933
G1 X16.491Y21.689
G1 X16.247Y21.393
G1 X16.062Y21.053
G1 X15.946Y20.678
G1 X15.905Y20.275
; Layer C00 Pass 9 of 30
G1 X15.946Y19.872
G1 X16.062Y19.497
G1 X16.247Y19.157
G1 X16.491Y18.861
G1 X16.787Y18.617
G1 X17.127Y18.432
G1 X17.502Y18.316
G1 X17.905Y18.275
G1 X18.308Y18.316
G1 X18.683Y18.432
G1 X19.023Y18.617
G1 X19.319Y18.861
G1 X19.563Y19.157
G1 X19.748Y19.497
G1 X19.864Y19.872
G1 X19.905Y20.275
G1 X19.864Y20.678
G1 X19.748Y21.053
G1 X19.563Y21.393
G1 X19.319Y21.689
G1 X19.023Y21.933
G1 X18.683Y22.118
G1 X18.308Y22.234
G1 X17.905Y22.275
G1 X17.502Y22.234
G1 X17.127Y22.118
G1 X16.787Y21.933
G1 X16.491Y21.689
G1 X16.247Y21.393
G1 X16.062Y21.053
G1 X15.946Y20.678
G1 X15.905Y20.275
; Layer C00 Pass 10 of 30
G1 X15.946Y19.872
G1 X16.062Y19.497
G1 X16.247Y19.157
G1 X16.491Y18.861
G1 X16.787Y18.617
G1 X17.127Y18.432
G1 X17.502Y18.316
G1 X17.905Y18.275
G1 X18.308Y18.316
G1 X18.683Y18.432
G1 X19.023Y18.617
G1 X19.319Y18.861
G1 X19.563Y19.157
G1 X19.748Y19.497
G1 X19.864Y19.872
G1 X19.905Y20.275
G1 X19.864Y20.678
G1 X19.748Y21.053
G1 X19.563Y21.393
G1 X19.319Y21.689
G1 X19.023Y21.933
G1 X18.683Y22.118
G1 X18.308Y22.234
G1 X17.905Y22.275
G1 X17.502Y22.234
G1 X17.127Y22.118
G1 X16.787Y21.933
G1 X16.491Y21.689
G1 X16.247Y21.393
G1 X16.062Y21.053
G1 X15.946Y20.678
G1 X15.905Y20.275
; Layer C00 Pass 11 of 30
G1 X15.946Y19.872
G1 X16.062Y19.497
G1 X16.247Y19.157
G1 X16.491Y18.861
G1 X16.787Y18.617
G1 X17.127Y18.432
G1 X17.502Y18.316
G1 X17.905Y18.275
G1 X18.308Y18.316
G1 X18.683Y18.432
G1 X19.023Y18.617
G1 X19.319Y18.861
G1 X19.563Y19.157
G1 X19.748Y19.497
G1 X19.864Y19.872
G1 X19.905Y20.275
G1 X19.864Y20.678
G1 X19.748Y21.053
G1 X19.563Y21.393
G1 X19.319Y21.689
G1 X19.023Y21.933
G1 X18.683Y22.118
G1 X18.308Y22.234
G1 X17.905Y22.275
G1 X17.502Y22.234
G1 X17.127Y22.118
G1 X16.787Y21.933
G1 X16.491Y21.689
G1 X16.247Y21.393
G1 X16.062Y21.053
G1 X15.946Y20.678
G1 X15.905Y20.275
; Layer C00 Pass 12 of 30
G1 X15.946Y19.872
G1 X16.062Y19.497
G1 X16.247Y19.157
G1 X16.491Y18.861
G1 X16.787Y18.617
G1 X17.127Y18.432
G1 X17.502Y18.316
G1 X17.905Y18.275
G1 X18.308Y18.316
G1 X18.683Y18.432
G1 X19.023Y18.617
G1 X19.319Y18.861
G1 X19.563Y19.157
G1 X19.748Y19.497
G1 X19.864Y19.872
G1 X19.905Y20.275
G1 X19.864Y20.678
G1 X19.748Y21.053
G1 X19.563Y21.393
G1 X19.319Y21.689
G1 X19.023Y21.933
G1 X18.683Y22.118
G1 X18.308Y22.234
G1 X17.905Y22.275
G1 X17.502Y22.234
G1 X17.127Y22.118
G1 X16.787Y21.933
G1 X16.491Y21.689
G1 X16.247Y21.393
G1 X16.062Y21.053
G1 X15.946Y20.678
G1 X15.905Y20.275
; Layer C00 Pass 13 of 30
G1 X15.946Y19.872
G1 X16.062Y19.497
G1 X16.247Y19.157
G1 X16.491Y18.861
G1 X16.787Y18.617
G1 X17.127Y18.432
G1 X17.502Y18.316
G1 X17.905Y18.275
G1 X18.308Y18.316
G1 X18.683Y18.432
G1 X19.023Y18.617
G1 X19.319Y18.861
G1 X19.563Y19.157
G1 X19.748Y19.497
G1 X19.864Y19.872
G1 X19.905Y20.275
G1 X19.864Y20.678
G1 X19.748Y21.053
G1 X19.563Y21.393
G1 X19.319Y21.689
G1 X19.023Y21.933
G1 X18.683Y22.118
G1 X18.308Y22.234
G1 X17.905Y22.275
G1 X17.502Y22.234
G1 X17.127Y22.118
G1 X16.787Y21.933
G1 X16.491Y21.689
G1 X16.247Y21.393
G1 X16.062Y21.053
G1 X15.946Y20.678
G1 X15.905Y20.275
; Layer C00 Pass 14 of 30
G1 X15.946Y19.872
G1 X16.062Y19.497
G1 X16.247Y19.157
G1 X16.491Y18.861
G1 X16.787Y18.617
G1 X17.127Y18.432
G1 X17.502Y18.316
G1 X17.905Y18.275
G1 X18.308Y18.316
G1 X18.683Y18.432
G1 X19.023Y18.617
G1 X19.319Y18.861
G1 X19.563Y19.157
G1 X19.748Y19.497
G1 X19.864Y19.872
G1 X19.905Y20.275
G1 X19.864Y20.678
G1 X19.748Y21.053
G1 X19.563Y21.393
G1 X19.319Y21.689
G1 X19.023Y21.933
G1 X18.683Y22.118
G1 X18.308Y22.234
G1 X17.905Y22.275
G1 X17.502Y22.234
G1 X17.127Y22.118
G1 X16.787Y21.933
G1 X16.491Y21.689
G1 X16.247Y21.393
G1 X16.062Y21.053
G1 X15.946Y20.678
G1 X15.905Y20.275
; Layer C00 Pass 15 of 30
G1 X15.946Y19.872
G1 X16.062Y19.497
G1 X16.247Y19.157
G1 X16.491Y18.861
G1 X16.787Y18.617
G1 X17.127Y18.432
G1 X17.502Y18.316
G1 X17.905Y18.275
G1 X18.308Y18.316
G1 X18.683Y18.432
G1 X19.023Y18.617
G1 X19.319Y18.861
G1 X19.563Y19.157
G1 X19.748Y19.497
G1 X19.864Y19.872
G1 X19.905Y20.275
G1 X19.864Y20.678
G1 X19.748Y21.053
G1 X19.563Y21.393
G1 X19.319Y21.689
G1 X19.023Y21.933
G1 X18.683Y22.118
G1 X18.308Y22.234
G1 X17.905Y22.275
G1 X17.502Y22.234
G1 X17.127Y22.118
G1 X16.787Y21.933
G1 X16.491Y21.689
G1 X16.247Y21.393
G1 X16.062Y21.053
G1 X15.946Y20.678
G1 X15.905Y20.275
; Layer C00 Pass 16 of 30
G1 X15.946Y19.872
G1 X16.062Y19.497
G1 X16.247Y19.157
G1 X16.491Y18.861
G1 X16.787Y18.617
G1 X17.127Y18.432
G1 X17.502Y18.316
G1 X17.905Y18.275
G1 X18.308Y18.316
G1 X18.683Y18.432
G1 X19.023Y18.617
G1 X19.319Y18.861
G1 X19.563Y19.157
G1 X19.748Y19.497
G1 X19.864Y19.872
G1 X19.905Y20.275
G1 X19.864Y20.678
G1 X19.748Y21.053
G1 X19.563Y21.393
G1 X19.319Y21.689
G1 X19.023Y21.933
G1 X18.683Y22.118
G1 X18.308Y22.234
G1 X17.905Y22.275
G1 X17.502Y22.234
G1 X17.127Y22.118
G1 X16.787Y21.933
G1 X16.491Y21.689
G1 X16.247Y21.393
G1 X16.062Y21.053
G1 X15.946Y20.678
G1 X15.905Y20.275
; Layer C00 Pass 17 of 30
G1 X15.946Y19.872
G1 X16.062Y19.497
G1 X16.247Y19.157
G1 X16.491Y18.861
G1 X16.787Y18.617
G1 X17.127Y18.432
G1 X17.502Y18.316
G1 X17.905Y18.275
G1 X18.308Y18.316
G1 X18.683Y18.432
G1 X19.023Y18.617
G1 X19.319Y18.861
G1 X19.563Y19.157
G1 X19.748Y19.497
G1 X19.864Y19.872
G1 X19.905Y20.275
G1 X19.864Y20.678
G1 X19.748Y21.053
G1 X19.563Y21.393
G1 X19.319Y21.689
G1 X19.023Y21.933
G1 X18.683Y22.118
G1 X18.308Y22.234
G1 X17.905Y22.275
G1 X17.502Y22.234
G1 X17.127Y22.118
G1 X16.787Y21.933
G1 X16.491Y21.689
G1 X16.247Y21.393
G1 X16.062Y21.053
G1 X15.946Y20.678
G1 X15.905Y20.275
; Layer C00 Pass 18 of 30
G1 X15.946Y19.872
G1 X16.062Y19.497
G1 X16.247Y19.157
G1 X16.491Y18.861
G1 X16.787Y18.617
G1 X17.127Y18.432
G1 X17.502Y18.316
G1 X17.905Y18.275
G1 X18.308Y18.316
G1 X18.683Y18.432
G1 X19.023Y18.617
G1 X19.319Y18.861
G1 X19.563Y19.157
G1 X19.748Y19.497
G1 X19.864Y19.872
G1 X19.905Y20.275
G1 X19.864Y20.678
G1 X19.748Y21.053
G1 X19.563Y21.393
G1 X19.319Y21.689
G1 X19.023Y21.933
G1 X18.683Y22.118
G1 X18.308Y22.234
G1 X17.905Y22.275
G1 X17.502Y22.234
G1 X17.127Y22.118
G1 X16.787Y21.933
G1 X16.491Y21.689
G1 X16.247Y21.393
G1 X16.062Y21.053
G1 X15.946Y20.678
G1 X15.905Y20.275
; Layer C00 Pass 19 of 30
G1 X15.946Y19.872
G1 X16.062Y19.497
G1 X16.247Y19.157
G1 X16.491Y18.861
G1 X16.787Y18.617
G1 X17.127Y18.432
G1 X17.502Y18.316
G1 X17.905Y18.275
G1 X18.308Y18.316
G1 X18.683Y18.432
G1 X19.023Y18.617
G1 X19.319Y18.861
G1 X19.563Y19.157
G1 X19.748Y19.497
G1 X19.864Y19.872
G1 X19.905Y20.275
G1 X19.864Y20.678
G1 X19.748Y21.053
G1 X19.563Y21.393
G1 X19.319Y21.689
G1 X19.023Y21.933
G1 X18.683Y22.118
G1 X18.308Y22.234
G1 X17.905Y22.275
G1 X17.502Y22.234
G1 X17.127Y22.118
G1 X16.787Y21.933
G1 X16.491Y21.689
G1 X16.247Y21.393
G1 X16.062Y21.053
G1 X15.946Y20.678
G1 X15.905Y20.275
; Layer C00 Pass 20 of 30
G1 X15.946Y19.872
G1 X16.062Y19.497
G1 X16.247Y19.157
G1 X16.491Y18.861
G1 X16.787Y18.617
G1 X17.127Y18.432
G1 X17.502Y18.316
G1 X17.905Y18.275
G1 X18.308Y18.316
G1 X18.683Y18.432
G1 X19.023Y18.617
G1 X19.319Y18.861
G1 X19.563Y19.157
G1 X19.748Y19.497
G1 X19.864Y19.872
G1 X19.905Y20.275
G1 X19.864Y20.678
G1 X19.748Y21.053
G1 X19.563Y21.393
G1 X19.319Y21.689
G1 X19.023Y21.933
G1 X18.683Y22.118
G1 X18.308Y22.234
G1 X17.905Y22.275
G1 X17.502Y22.234
G1 X17.127Y22.118
G1 X16.787Y21.933
G1 X16.491Y21.689
G1 X16.247Y21.393
G1 X16.062Y21.053
G1 X15.946Y20.678
G1 X15.905Y20.275
; Layer C00 Pass 21 of 30
G1 X15.946Y19.872
G1 X16.062Y19.497
G1 X16.247Y19.157
G1 X16.491Y18.861
G1 X16.787Y18.617
G1 X17.127Y18.432
G1 X17.502Y18.316
G1 X17.905Y18.275
G1 X18.308Y18.316
G1 X18.683Y18.432
G1 X19.023Y18.617
G1 X19.319Y18.861
G1 X19.563Y19.157
G1 X19.748Y19.497
G1 X19.864Y19.872
G1 X19.905Y20.275
G1 X19.864Y20.678
G1 X19.748Y21.053
G1 X19.563Y21.393
G1 X19.319Y21.689
G1 X19.023Y21.933
G1 X18.683Y22.118
G1 X18.308Y22.234
G1 X17.905Y22.275
G1 X17.502Y22.234
G1 X17.127Y22.118
G1 X16.787Y21.933
G1 X16.491Y21.689
G1 X16.247Y21.393
G1 X16.062Y21.053
G1 X15.946Y20.678
G1 X15.905Y20.275
; Layer C00 Pass 22 of 30
G1 X15.946Y19.872
G1 X16.062Y19.497
G1 X16.247Y19.157
G1 X16.491Y18.861
G1 X16.787Y18.617
G1 X17.127Y18.432
G1 X17.502Y18.316
G1 X17.905Y18.275
G1 X18.308Y18.316
G1 X18.683Y18.432
G1 X19.023Y18.617
G1 X19.319Y18.861
G1 X19.563Y19.157
G1 X19.748Y19.497
G1 X19.864Y19.872
G1 X19.905Y20.275
G1 X19.864Y20.678
G1 X19.748Y21.053
G1 X19.563Y21.393
G1 X19.319Y21.689
G1 X19.023Y21.933
G1 X18.683Y22.118
G1 X18.308Y22.234
G1 X17.905Y22.275
G1 X17.502Y22.234
G1 X17.127Y22.118
G1 X16.787Y21.933
G1 X16.491Y21.689
G1 X16.247Y21.393
G1 X16.062Y21.053
G1 X15.946Y20.678
G1 X15.905Y20.275
; Layer C00 Pass 23 of 30
G1 X15.946Y19.872
G1 X16.062Y19.497
G1 X16.247Y19.157
G1 X16.491Y18.861
G1 X16.787Y18.617
G1 X17.127Y18.432
G1 X17.502Y18.316
G1 X17.905Y18.275
G1 X18.308Y18.316
G1 X18.683Y18.432
G1 X19.023Y18.617
G1 X19.319Y18.861
G1 X19.563Y19.157
G1 X19.748Y19.497
G1 X19.864Y19.872
G1 X19.905Y20.275
G1 X19.864Y20.678
G1 X19.748Y21.053
G1 X19.563Y21.393
G1 X19.319Y21.689
G1 X19.023Y21.933
G1 X18.683Y22.118
G1 X18.308Y22.234
G1 X17.905Y22.275
G1 X17.502Y22.234
G1 X17.127Y22.118
G1 X16.787Y21.933
G1 X16.491Y21.689
G1 X16.247Y21.393
G1 X16.062Y21.053
G1 X15.946Y20.678
G1 X15.905Y20.275
; Layer C00 Pass 24 of 30
G1 X15.946Y19.872
G1 X16.062Y19.497
G1 X16.247Y19.157
G1 X16.491Y18.861
G1 X16.787Y18.617
G1 X17.127Y18.432
G1 X17.502Y18.316
G1 X17.905Y18.275
G1 X18.308Y18.316
G1 X18.683Y18.432
G1 X19.023Y18.617
G1 X19.319Y18.861
G1 X19.563Y19.157
G1 X19.748Y19.497
G1 X19.864Y19.872
G1 X19.905Y20.275
G1 X19.864Y20.678
G1 X19.748Y21.053
G1 X19.563Y21.393
G1 X19.319Y21.689
G1 X19.023Y21.933
G1 X18.683Y22.118
G1 X18.308Y22.234
G1 X17.905Y22.275
G1 X17.502Y22.234
G1 X17.127Y22.118
G1 X16.787Y21.933
G1 X16.491Y21.689
G1 X16.247Y21.393
G1 X16.062Y21.053
G1 X15.946Y20.678
G1 X15.905Y20.275
; Layer C00 Pass 25 of 30
G1 X15.946Y19.872
G1 X16.062Y19.497
G1 X16.247Y19.157
G1 X16.491Y18.861
G1 X16.787Y18.617
G1 X17.127Y18.432
G1 X17.502Y18.316
G1 X17.905Y18.275
G1 X18.308Y18.316
G1 X18.683Y18.432
G1 X19.023Y18.617
G1 X19.319Y18.861
G1 X19.563Y19.157
G1 X19.748Y19.497
G1 X19.864Y19.872
G1 X19.905Y20.275
G1 X19.864Y20.678
G1 X19.748Y21.053
G1 X19.563Y21.393
G1 X19.319Y21.689
G1 X19.023Y21.933
G1 X18.683Y22.118
G1 X18.308Y22.234
G1 X17.905Y22.275
G1 X17.502Y22.234
G1 X17.127Y22.118
G1 X16.787Y21.933
G1 X16.491Y21.689
G1 X16.247Y21.393
G1 X16.062Y21.053
G1 X15.946Y20.678
G1 X15.905Y20.275
; Layer C00 Pass 26 of 30
G1 X15.946Y19.872
G1 X16.062Y19.497
G1 X16.247Y19.157
G1 X16.491Y18.861
G1 X16.787Y18.617
G1 X17.127Y18.432
G1 X17.502Y18.316
G1 X17.905Y18.275
G1 X18.308Y18.316
G1 X18.683Y18.432
G1 X19.023Y18.617
G1 X19.319Y18.861
G1 X19.563Y19.157
G1 X19.748Y19.497
G1 X19.864Y19.872
G1 X19.905Y20.275
G1 X19.864Y20.678
G1 X19.748Y21.053
G1 X19.563Y21.393
G1 X19.319Y21.689
G1 X19.023Y21.933
G1 X18.683Y22.118
G1 X18.308Y22.234
G1 X17.905Y22.275
G1 X17.502Y22.234
G1 X17.127Y22.118
G1 X16.787Y21.933
G1 X16.491Y21.689
G1 X16.247Y21.393
G1 X16.062Y21.053
G1 X15.946Y20.678
G1 X15.905Y20.275
; Layer C00 Pass 27 of 30
G1 X15.946Y19.872
G1 X16.062Y19.497
G1 X16.247Y19.157
G1 X16.491Y18.861
G1 X16.787Y18.617
G1 X17.127Y18.432
G1 X17.502Y18.316
G1 X17.905Y18.275
G1 X18.308Y18.316
G1 X18.683Y18.432
G1 X19.023Y18.617
G1 X19.319Y18.861
G1 X19.563Y19.157
G1 X19.748Y19.497
G1 X19.864Y19.872
G1 X19.905Y20.275
G1 X19.864Y20.678
G1 X19.748Y21.053
G1 X19.563Y21.393
G1 X19.319Y21.689
G1 X19.023Y21.933
G1 X18.683Y22.118
G1 X18.308Y22.234
G1 X17.905Y22.275
G1 X17.502Y22.234
G1 X17.127Y22.118
G1 X16.787Y21.933
G1 X16.491Y21.689
G1 X16.247Y21.393
G1 X16.062Y21.053
G1 X15.946Y20.678
G1 X15.905Y20.275
; Layer C00 Pass 28 of 30
G1 X15.946Y19.872
G1 X16.062Y19.497
G1 X16.247Y19.157
G1 X16.491Y18.861
G1 X16.787Y18.617
G1 X17.127Y18.432
G1 X17.502Y18.316
G1 X17.905Y18.275
G1 X18.308Y18.316
G1 X18.683Y18.432
G1 X19.023Y18.617
G1 X19.319Y18.861
G1 X19.563Y19.157
G1 X19.748Y19.497
G1 X19.864Y19.872
G1 X19.905Y20.275
G1 X19.864Y20.678
G1 X19.748Y21.053
G1 X19.563Y21.393
G1 X19.319Y21.689
G1 X19.023Y21.933
G1 X18.683Y22.118
G1 X18.308Y22.234
G1 X17.905Y22.275
G1 X17.502Y22.234
G1 X17.127Y22.118
G1 X16.787Y21.933
G1 X16.491Y21.689
G1 X16.247Y21.393
G1 X16.062Y21.053
G1 X15.946Y20.678
G1 X15.905Y20.275
; Layer C00 Pass 29 of 30
G1 X15.946Y19.872
G1 X16.062Y19.497
G1 X16.247Y19.157
G1 X16.491Y18.861
G1 X16.787Y18.617
G1 X17.127Y18.432
G1 X17.502Y18.316
G1 X17.905Y18.275
G1 X18.308Y18.316
G1 X18.683Y18.432
G1 X19.023Y18.617
G1 X19.319Y18.861
G1 X19.563Y19.157
G1 X19.748Y19.497
G1 X19.864Y19.872
G1 X19.905Y20.275
G1 X19.864Y20.678
G1 X19.748Y21.053
G1 X19.563Y21.393
G1 X19.319Y21.689
G1 X19.023Y21.933
G1 X18.683Y22.118
G1 X18.308Y22.234
G1 X17.905Y22.275
G1 X17.502Y22.234
G1 X17.127Y22.118
G1 X16.787Y21.933
G1 X16.491Y21.689
G1 X16.247Y21.393
G1 X16.062Y21.053
G1 X15.946Y20.678
G1 X15.905Y20.275
; Layer C00 Pass 30 of 30
G1 X15.946Y19.872
G1 X16.062Y19.497
G1 X16.247Y19.157
G1 X16.491Y18.861
G1 X16.787Y18.617
G1 X17.127Y18.432
G1 X17.502Y18.316
G1 X17.905Y18.275
G1 X18.308Y18.316
G1 X18.683Y18.432
G1 X19.023Y18.617
G1 X19.319Y18.861
G1 X19.563Y19.157
G1 X19.748Y19.497
G1 X19.864Y19.872
G1 X19.905Y20.275
G1 X19.864Y20.678
G1 X19.748Y21.053
G1 X19.563Y21.393
G1 X19.319Y21.689
G1 X19.023Y21.933
G1 X18.683Y22.118
G1 X18.308Y22.234
G1 X17.905Y22.275
G1 X17.502Y22.234
G1 X17.127Y22.118
G1 X16.787Y21.933
G1 X16.491Y21.689
G1 X16.247Y21.393
G1 X16.062Y21.053
G1 X15.946Y20.678
G1 X15.905Y20.275
G0 X28.705Y20.275
; Layer C00 Pass 1 of 30
G1 X28.722Y20.01
G1 X28.774Y19.753
G1 X28.858Y19.507
G1 X28.973Y19.275
G1 X29.116Y19.059
G1 X29.287Y18.863
G1 X29.484Y18.69
G1 X29.705Y18.542
G1 X29.943Y18.425
G1 X30.191Y18.341
G1 X30.447Y18.291
G1 X30.705Y18.274
G1 X30.963Y18.291
G1 X31.219Y18.341
G1 X31.467Y18.425
G1 X31.705Y18.542
G1 X31.926Y18.69
G1 X32.123Y18.863
G1 X32.294Y19.059
G1 X32.437Y19.275
G1 X32.552Y19.507
G1 X32.636Y19.753
G1 X32.688Y20.01
G1 X32.705Y20.275
G1 X32.688Y20.54
G1 X32.636Y20.797
G1 X32.552Y21.043
G1 X32.437Y21.275
G1 X32.294Y21.491
G1 X32.123Y21.687
G1 X31.926Y21.86
G1 X31.705Y22.008
G1 X31.467Y22.125
G1 X31.219Y22.209
G1 X30.963Y22.259
G1 X30.705Y22.276
G1 X30.447Y22.259
G1 X30.191Y22.209
G1 X29.943Y22.125
G1 X29.705Y22.008
G1 X29.484Y21.86
G1 X29.287Y21.687
G1 X29.116Y21.491
G1 X28.973Y21.275
G1 X28.858Y21.043
G1 X28.774Y20.797
G1 X28.722Y20.54
G1 X28.705Y20.275
; Layer C00 Pass 2 of 30
G1 X28.722Y20.01
G1 X28.774Y19.753
G1 X28.858Y19.507
G1 X28.973Y19.275
G1 X29.116Y19.059
G1 X29.287Y18.863
G1 X29.484Y18.69
G1 X29.705Y18.542
G1 X29.943Y18.425
G1 X30.191Y18.341
G1 X30.447Y18.291
G1 X30.705Y18.274
G1 X30.963Y18.291
G1 X31.219Y18.341
G1 X31.467Y18.425
G1 X31.705Y18.542
G1 X31.926Y18.69
G1 X32.123Y18.863
G1 X32.294Y19.059
G1 X32.437Y19.275
G1 X32.552Y19.507
G1 X32.636Y19.753
G1 X32.688Y20.01
G1 X32.705Y20.275
G1 X32.688Y20.54
G1 X32.636Y20.797
G1 X32.552Y21.043
G1 X32.437Y21.275
G1 X32.294Y21.491
G1 X32.123Y21.687
G1 X31.926Y21.86
G1 X31.705Y22.008
G1 X31.467Y22.125
G1 X31.219Y22.209
G1 X30.963Y22.259
G1 X30.705Y22.276
G1 X30.447Y22.259
G1 X30.191Y22.209
G1 X29.943Y22.125
G1 X29.705Y22.008
G1 X29.484Y21.86
G1 X29.287Y21.687
G1 X29.116Y21.491
G1 X28.973Y21.275
G1 X28.858Y21.043
G1 X28.774Y20.797
G1 X28.722Y20.54
G1 X28.705Y20.275
; Layer C00 Pass 3 of 30
G1 X28.722Y20.01
G1 X28.774Y19.753
G1 X28.858Y19.507
G1 X28.973Y19.275
G1 X29.116Y19.059
G1 X29.287Y18.863
G1 X29.484Y18.69
G1 X29.705Y18.542
G1 X29.943Y18.425
G1 X30.191Y18.341
G1 X30.447Y18.291
G1 X30.705Y18.274
G1 X30.963Y18.291
G1 X31.219Y18.341
G1 X31.467Y18.425
G1 X31.705Y18.542
G1 X31.926Y18.69
G1 X32.123Y18.863
G1 X32.294Y19.059
G1 X32.437Y19.275
G1 X32.552Y19.507
G1 X32.636Y19.753
G1 X32.688Y20.01
G1 X32.705Y20.275
G1 X32.688Y20.54
G1 X32.636Y20.797
G1 X32.552Y21.043
G1 X32.437Y21.275
G1 X32.294Y21.491
G1 X32.123Y21.687
G1 X31.926Y21.86
G1 X31.705Y22.008
G1 X31.467Y22.125
G1 X31.219Y22.209
G1 X30.963Y22.259
G1 X30.705Y22.276
G1 X30.447Y22.259
G1 X30.191Y22.209
G1 X29.943Y22.125
G1 X29.705Y22.008
G1 X29.484Y21.86
G1 X29.287Y21.687
G1 X29.116Y21.491
G1 X28.973Y21.275
G1 X28.858Y21.043
G1 X28.774Y20.797
G1 X28.722Y20.54
G1 X28.705Y20.275
; Layer C00 Pass 4 of 30
G1 X28.722Y20.01
G1 X28.774Y19.753
G1 X28.858Y19.507
G1 X28.973Y19.275
G1 X29.116Y19.059
G1 X29.287Y18.863
G1 X29.484Y18.69
G1 X29.705Y18.542
G1 X29.943Y18.425
G1 X30.191Y18.341
G1 X30.447Y18.291
G1 X30.705Y18.274
G1 X30.963Y18.291
G1 X31.219Y18.341
G1 X31.467Y18.425
G1 X31.705Y18.542
G1 X31.926Y18.69
G1 X32.123Y18.863
G1 X32.294Y19.059
G1 X32.437Y19.275
G1 X32.552Y19.507
G1 X32.636Y19.753
G1 X32.688Y20.01
G1 X32.705Y20.275
G1 X32.688Y20.54
G1 X32.636Y20.797
G1 X32.552Y21.043
G1 X32.437Y21.275
G1 X32.294Y21.491
G1 X32.123Y21.687
G1 X31.926Y21.86
G1 X31.705Y22.008
G1 X31.467Y22.125
G1 X31.219Y22.209
G1 X30.963Y22.259
G1 X30.705Y22.276
G1 X30.447Y22.259
G1 X30.191Y22.209
G1 X29.943Y22.125
G1 X29.705Y22.008
G1 X29.484Y21.86
G1 X29.287Y21.687
G1 X29.116Y21.491
G1 X28.973Y21.275
G1 X28.858Y21.043
G1 X28.774Y20.797
G1 X28.722Y20.54
G1 X28.705Y20.275
; Layer C00 Pass 5 of 30
G1 X28.722Y20.01
G1 X28.774Y19.753
G1 X28.858Y19.507
G1 X28.973Y19.275
G1 X29.116Y19.059
G1 X29.287Y18.863
G1 X29.484Y18.69
G1 X29.705Y18.542
G1 X29.943Y18.425
G1 X30.191Y18.341
G1 X30.447Y18.291
G1 X30.705Y18.274
G1 X30.963Y18.291
G1 X31.219Y18.341
G1 X31.467Y18.425
G1 X31.705Y18.542
G1 X31.926Y18.69
G1 X32.123Y18.863
G1 X32.294Y19.059
G1 X32.437Y19.275
G1 X32.552Y19.507
G1 X32.636Y19.753
G1 X32.688Y20.01
G1 X32.705Y20.275
G1 X32.688Y20.54
G1 X32.636Y20.797
G1 X32.552Y21.043
G1 X32.437Y21.275
G1 X32.294Y21.491
G1 X32.123Y21.687
G1 X31.926Y21.86
G1 X31.705Y22.008
G1 X31.467Y22.125
G1 X31.219Y22.209
G1 X30.963Y22.259
G1 X30.705Y22.276
G1 X30.447Y22.259
G1 X30.191Y22.209
G1 X29.943Y22.125
G1 X29.705Y22.008
G1 X29.484Y21.86
G1 X29.287Y21.687
G1 X29.116Y21.491
G1 X28.973Y21.275
G1 X28.858Y21.043
G1 X28.774Y20.797
G1 X28.722Y20.54
G1 X28.705Y20.275
; Layer C00 Pass 6 of 30
G1 X28.722Y20.01
G1 X28.774Y19.753
G1 X28.858Y19.507
G1 X28.973Y19.275
G1 X29.116Y19.059
G1 X29.287Y18.863
G1 X29.484Y18.69
G1 X29.705Y18.542
G1 X29.943Y18.425
G1 X30.191Y18.341
G1 X30.447Y18.291
G1 X30.705Y18.274
G1 X30.963Y18.291
G1 X31.219Y18.341
G1 X31.467Y18.425
G1 X31.705Y18.542
G1 X31.926Y18.69
G1 X32.123Y18.863
G1 X32.294Y19.059
G1 X32.437Y19.275
G1 X32.552Y19.507
G1 X32.636Y19.753
G1 X32.688Y20.01
G1 X32.705Y20.275
G1 X32.688Y20.54
G1 X32.636Y20.797
G1 X32.552Y21.043
G1 X32.437Y21.275
G1 X32.294Y21.491
G1 X32.123Y21.687
G1 X31.926Y21.86
G1 X31.705Y22.008
G1 X31.467Y22.125
G1 X31.219Y22.209
G1 X30.963Y22.259
G1 X30.705Y22.276
G1 X30.447Y22.259
G1 X30.191Y22.209
G1 X29.943Y22.125
G1 X29.705Y22.008
G1 X29.484Y21.86
G1 X29.287Y21.687
G1 X29.116Y21.491
G1 X28.973Y21.275
G1 X28.858Y21.043
G1 X28.774Y20.797
G1 X28.722Y20.54
G1 X28.705Y20.275
; Layer C00 Pass 7 of 30
G1 X28.722Y20.01
G1 X28.774Y19.753
G1 X28.858Y19.507
G1 X28.973Y19.275
G1 X29.116Y19.059
G1 X29.287Y18.863
G1 X29.484Y18.69
G1 X29.705Y18.542
G1 X29.943Y18.425
G1 X30.191Y18.341
G1 X30.447Y18.291
G1 X30.705Y18.274
G1 X30.963Y18.291
G1 X31.219Y18.341
G1 X31.467Y18.425
G1 X31.705Y18.542
G1 X31.926Y18.69
G1 X32.123Y18.863
G1 X32.294Y19.059
G1 X32.437Y19.275
G1 X32.552Y19.507
G1 X32.636Y19.753
G1 X32.688Y20.01
G1 X32.705Y20.275
G1 X32.688Y20.54
G1 X32.636Y20.797
G1 X32.552Y21.043
G1 X32.437Y21.275
G1 X32.294Y21.491
G1 X32.123Y21.687
G1 X31.926Y21.86
G1 X31.705Y22.008
G1 X31.467Y22.125
G1 X31.219Y22.209
G1 X30.963Y22.259
G1 X30.705Y22.276
G1 X30.447Y22.259
G1 X30.191Y22.209
G1 X29.943Y22.125
G1 X29.705Y22.008
G1 X29.484Y21.86
G1 X29.287Y21.687
G1 X29.116Y21.491
G1 X28.973Y21.275
G1 X28.858Y21.043
G1 X28.774Y20.797
G1 X28.722Y20.54
G1 X28.705Y20.275
; Layer C00 Pass 8 of 30
G1 X28.722Y20.01
G1 X28.774Y19.753
G1 X28.858Y19.507
G1 X28.973Y19.275
G1 X29.116Y19.059
G1 X29.287Y18.863
G1 X29.484Y18.69
G1 X29.705Y18.542
G1 X29.943Y18.425
G1 X30.191Y18.341
G1 X30.447Y18.291
G1 X30.705Y18.274
G1 X30.963Y18.291
G1 X31.219Y18.341
G1 X31.467Y18.425
G1 X31.705Y18.542
G1 X31.926Y18.69
G1 X32.123Y18.863
G1 X32.294Y19.059
G1 X32.437Y19.275
G1 X32.552Y19.507
G1 X32.636Y19.753
G1 X32.688Y20.01
G1 X32.705Y20.275
G1 X32.688Y20.54
G1 X32.636Y20.797
G1 X32.552Y21.043
G1 X32.437Y21.275
G1 X32.294Y21.491
G1 X32.123Y21.687
G1 X31.926Y21.86
G1 X31.705Y22.008
G1 X31.467Y22.125
G1 X31.219Y22.209
G1 X30.963Y22.259
G1 X30.705Y22.276
G1 X30.447Y22.259
G1 X30.191Y22.209
G1 X29.943Y22.125
G1 X29.705Y22.008
G1 X29.484Y21.86
G1 X29.287Y21.687
G1 X29.116Y21.491
G1 X28.973Y21.275
G1 X28.858Y21.043
G1 X28.774Y20.797
G1 X28.722Y20.54
G1 X28.705Y20.275
; Layer C00 Pass 9 of 30
G1 X28.722Y20.01
G1 X28.774Y19.753
G1 X28.858Y19.507
G1 X28.973Y19.275
G1 X29.116Y19.059
G1 X29.287Y18.863
G1 X29.484Y18.69
G1 X29.705Y18.542
G1 X29.943Y18.425
G1 X30.191Y18.341
G1 X30.447Y18.291
G1 X30.705Y18.274
G1 X30.963Y18.291
G1 X31.219Y18.341
G1 X31.467Y18.425
G1 X31.705Y18.542
G1 X31.926Y18.69
G1 X32.123Y18.863
G1 X32.294Y19.059
G1 X32.437Y19.275
G1 X32.552Y19.507
G1 X32.636Y19.753
G1 X32.688Y20.01
G1 X32.705Y20.275
G1 X32.688Y20.54
G1 X32.636Y20.797
G1 X32.552Y21.043
G1 X32.437Y21.275
G1 X32.294Y21.491
G1 X32.123Y21.687
G1 X31.926Y21.86
G1 X31.705Y22.008
G1 X31.467Y22.125
G1 X31.219Y22.209
G1 X30.963Y22.259
G1 X30.705Y22.276
G1 X30.447Y22.259
G1 X30.191Y22.209
G1 X29.943Y22.125
G1 X29.705Y22.008
G1 X29.484Y21.86
G1 X29.287Y21.687
G1 X29.116Y21.491
G1 X28.973Y21.275
G1 X28.858Y21.043
G1 X28.774Y20.797
G1 X28.722Y20.54
G1 X28.705Y20.275
; Layer C00 Pass 10 of 30
G1 X28.722Y20.01
G1 X28.774Y19.753
G1 X28.858Y19.507
G1 X28.973Y19.275
G1 X29.116Y19.059
G1 X29.287Y18.863
G1 X29.484Y18.69
G1 X29.705Y18.542
G1 X29.943Y18.425
G1 X30.191Y18.341
G1 X30.447Y18.291
G1 X30.705Y18.274
G1 X30.963Y18.291
G1 X31.219Y18.341
G1 X31.467Y18.425
G1 X31.705Y18.542
G1 X31.926Y18.69
G1 X32.123Y18.863
G1 X32.294Y19.059
G1 X32.437Y19.275
G1 X32.552Y19.507
G1 X32.636Y19.753
G1 X32.688Y20.01
G1 X32.705Y20.275
G1 X32.688Y20.54
G1 X32.636Y20.797
G1 X32.552Y21.043
G1 X32.437Y21.275
G1 X32.294Y21.491
G1 X32.123Y21.687
G1 X31.926Y21.86
G1 X31.705Y22.008
G1 X31.467Y22.125
G1 X31.219Y22.209
G1 X30.963Y22.259
G1 X30.705Y22.276
G1 X30.447Y22.259
G1 X30.191Y22.209
G1 X29.943Y22.125
G1 X29.705Y22.008
G1 X29.484Y21.86
G1 X29.287Y21.687
G1 X29.116Y21.491
G1 X28.973Y21.275
G1 X28.858Y21.043
G1 X28.774Y20.797
G1 X28.722Y20.54
G1 X28.705Y20.275
; Layer C00 Pass 11 of 30
G1 X28.722Y20.01
G1 X28.774Y19.753
G1 X28.858Y19.507
G1 X28.973Y19.275
G1 X29.116Y19.059
G1 X29.287Y18.863
G1 X29.484Y18.69
G1 X29.705Y18.542
G1 X29.943Y18.425
G1 X30.191Y18.341
G1 X30.447Y18.291
G1 X30.705Y18.274
G1 X30.963Y18.291
G1 X31.219Y18.341
G1 X31.467Y18.425
G1 X31.705Y18.542
G1 X31.926Y18.69
G1 X32.123Y18.863
G1 X32.294Y19.059
G1 X32.437Y19.275
G1 X32.552Y19.507
G1 X32.636Y19.753
G1 X32.688Y20.01
G1 X32.705Y20.275
G1 X32.688Y20.54
G1 X32.636Y20.797
G1 X32.552Y21.043
G1 X32.437Y21.275
G1 X32.294Y21.491
G1 X32.123Y21.687
G1 X31.926Y21.86
G1 X31.705Y22.008
G1 X31.467Y22.125
G1 X31.219Y22.209
G1 X30.963Y22.259
G1 X30.705Y22.276
G1 X30.447Y22.259
G1 X30.191Y22.209
G1 X29.943Y22.125
G1 X29.705Y22.008
G1 X29.484Y21.86
G1 X29.287Y21.687
G1 X29.116Y21.491
G1 X28.973Y21.275
G1 X28.858Y21.043
G1 X28.774Y20.797
G1 X28.722Y20.54
G1 X28.705Y20.275
; Layer C00 Pass 12 of 30
G1 X28.722Y20.01
G1 X28.774Y19.753
G1 X28.858Y19.507
G1 X28.973Y19.275
G1 X29.116Y19.059
G1 X29.287Y18.863
G1 X29.484Y18.69
G1 X29.705Y18.542
G1 X29.943Y18.425
G1 X30.191Y18.341
G1 X30.447Y18.291
G1 X30.705Y18.274
G1 X30.963Y18.291
G1 X31.219Y18.341
G1 X31.467Y18.425
G1 X31.705Y18.542
G1 X31.926Y18.69
G1 X32.123Y18.863
G1 X32.294Y19.059
G1 X32.437Y19.275
G1 X32.552Y19.507
G1 X32.636Y19.753
G1 X32.688Y20.01
G1 X32.705Y20.275
G1 X32.688Y20.54
G1 X32.636Y20.797
G1 X32.552Y21.043
G1 X32.437Y21.275
G1 X32.294Y21.491
G1 X32.123Y21.687
G1 X31.926Y21.86
G1 X31.705Y22.008
G1 X31.467Y22.125
G1 X31.219Y22.209
G1 X30.963Y22.259
G1 X30.705Y22.276
G1 X30.447Y22.259
G1 X30.191Y22.209
G1 X29.943Y22.125
G1 X29.705Y22.008
G1 X29.484Y21.86
G1 X29.287Y21.687
G1 X29.116Y21.491
G1 X28.973Y21.275
G1 X28.858Y21.043
G1 X28.774Y20.797
G1 X28.722Y20.54
G1 X28.705Y20.275
; Layer C00 Pass 13 of 30
G1 X28.722Y20.01
G1 X28.774Y19.753
G1 X28.858Y19.507
G1 X28.973Y19.275
G1 X29.116Y19.059
G1 X29.287Y18.863
G1 X29.484Y18.69
G1 X29.705Y18.542
G1 X29.943Y18.425
G1 X30.191Y18.341
G1 X30.447Y18.291
G1 X30.705Y18.274
G1 X30.963Y18.291
G1 X31.219Y18.341
G1 X31.467Y18.425
G1 X31.705Y18.542
G1 X31.926Y18.69
G1 X32.123Y18.863
G1 X32.294Y19.059
G1 X32.437Y19.275
G1 X32.552Y19.507
G1 X32.636Y19.753
G1 X32.688Y20.01
G1 X32.705Y20.275
G1 X32.688Y20.54
G1 X32.636Y20.797
G1 X32.552Y21.043
G1 X32.437Y21.275
G1 X32.294Y21.491
G1 X32.123Y21.687
G1 X31.926Y21.86
G1 X31.705Y22.008
G1 X31.467Y22.125
G1 X31.219Y22.209
G1 X30.963Y22.259
G1 X30.705Y22.276
G1 X30.447Y22.259
G1 X30.191Y22.209
G1 X29.943Y22.125
G1 X29.705Y22.008
G1 X29.484Y21.86
G1 X29.287Y21.687
G1 X29.116Y21.491
G1 X28.973Y21.275
G1 X28.858Y21.043
G1 X28.774Y20.797
G1 X28.722Y20.54
G1 X28.705Y20.275
; Layer C00 Pass 14 of 30
G1 X28.722Y20.01
G1 X28.774Y19.753
G1 X28.858Y19.507
G1 X28.973Y19.275
G1 X29.116Y19.059
G1 X29.287Y18.863
G1 X29.484Y18.69
G1 X29.705Y18.542
G1 X29.943Y18.425
G1 X30.191Y18.341
G1 X30.447Y18.291
G1 X30.705Y18.274
G1 X30.963Y18.291
G1 X31.219Y18.341
G1 X31.467Y18.425
G1 X31.705Y18.542
G1 X31.926Y18.69
G1 X32.123Y18.863
G1 X32.294Y19.059
G1 X32.437Y19.275
G1 X32.552Y19.507
G1 X32.636Y19.753
G1 X32.688Y20.01
G1 X32.705Y20.275
G1 X32.688Y20.54
G1 X32.636Y20.797
G1 X32.552Y21.043
G1 X32.437Y21.275
G1 X32.294Y21.491
G1 X32.123Y21.687
G1 X31.926Y21.86
G1 X31.705Y22.008
G1 X31.467Y22.125
G1 X31.219Y22.209
G1 X30.963Y22.259
G1 X30.705Y22.276
G1 X30.447Y22.259
G1 X30.191Y22.209
G1 X29.943Y22.125
G1 X29.705Y22.008
G1 X29.484Y21.86
G1 X29.287Y21.687
G1 X29.116Y21.491
G1 X28.973Y21.275
G1 X28.858Y21.043
G1 X28.774Y20.797
G1 X28.722Y20.54
G1 X28.705Y20.275
; Layer C00 Pass 15 of 30
G1 X28.722Y20.01
G1 X28.774Y19.753
G1 X28.858Y19.507
G1 X28.973Y19.275
G1 X29.116Y19.059
G1 X29.287Y18.863
G1 X29.484Y18.69
G1 X29.705Y18.542
G1 X29.943Y18.425
G1 X30.191Y18.341
G1 X30.447Y18.291
G1 X30.705Y18.274
G1 X30.963Y18.291
G1 X31.219Y18.341
G1 X31.467Y18.425
G1 X31.705Y18.542
G1 X31.926Y18.69
G1 X32.123Y18.863
G1 X32.294Y19.059
G1 X32.437Y19.275
G1 X32.552Y19.507
G1 X32.636Y19.753
G1 X32.688Y20.01
G1 X32.705Y20.275
G1 X32.688Y20.54
G1 X32.636Y20.797
G1 X32.552Y21.043
G1 X32.437Y21.275
G1 X32.294Y21.491
G1 X32.123Y21.687
G1 X31.926Y21.86
G1 X31.705Y22.008
G1 X31.467Y22.125
G1 X31.219Y22.209
G1 X30.963Y22.259
G1 X30.705Y22.276
G1 X30.447Y22.259
G1 X30.191Y22.209
G1 X29.943Y22.125
G1 X29.705Y22.008
G1 X29.484Y21.86
G1 X29.287Y21.687
G1 X29.116Y21.491
G1 X28.973Y21.275
G1 X28.858Y21.043
G1 X28.774Y20.797
G1 X28.722Y20.54
G1 X28.705Y20.275
; Layer C00 Pass 16 of 30
G1 X28.722Y20.01
G1 X28.774Y19.753
G1 X28.858Y19.507
G1 X28.973Y19.275
G1 X29.116Y19.059
G1 X29.287Y18.863
G1 X29.484Y18.69
G1 X29.705Y18.542
G1 X29.943Y18.425
G1 X30.191Y18.341
G1 X30.447Y18.291
G1 X30.705Y18.274
G1 X30.963Y18.291
G1 X31.219Y18.341
G1 X31.467Y18.425
G1 X31.705Y18.542
G1 X31.926Y18.69
G1 X32.123Y18.863
G1 X32.294Y19.059
G1 X32.437Y19.275
G1 X32.552Y19.507
G1 X32.636Y19.753
G1 X32.688Y20.01
G1 X32.705Y20.275
G1 X32.688Y20.54
G1 X32.636Y20.797
G1 X32.552Y21.043
G1 X32.437Y21.275
G1 X32.294Y21.491
G1 X32.123Y21.687
G1 X31.926Y21.86
G1 X31.705Y22.008
G1 X31.467Y22.125
G1 X31.219Y22.209
G1 X30.963Y22.259
G1 X30.705Y22.276
G1 X30.447Y22.259
G1 X30.191Y22.209
G1 X29.943Y22.125
G1 X29.705Y22.008
G1 X29.484Y21.86
G1 X29.287Y21.687
G1 X29.116Y21.491
G1 X28.973Y21.275
G1 X28.858Y21.043
G1 X28.774Y20.797
G1 X28.722Y20.54
G1 X28.705Y20.275
; Layer C00 Pass 17 of 30
G1 X28.722Y20.01
G1 X28.774Y19.753
G1 X28.858Y19.507
G1 X28.973Y19.275
G1 X29.116Y19.059
G1 X29.287Y18.863
G1 X29.484Y18.69
G1 X29.705Y18.542
G1 X29.943Y18.425
G1 X30.191Y18.341
G1 X30.447Y18.291
G1 X30.705Y18.274
G1 X30.963Y18.291
G1 X31.219Y18.341
G1 X31.467Y18.425
G1 X31.705Y18.542
G1 X31.926Y18.69
G1 X32.123Y18.863
G1 X32.294Y19.059
G1 X32.437Y19.275
G1 X32.552Y19.507
G1 X32.636Y19.753
G1 X32.688Y20.01
G1 X32.705Y20.275
G1 X32.688Y20.54
G1 X32.636Y20.797
G1 X32.552Y21.043
G1 X32.437Y21.275
G1 X32.294Y21.491
G1 X32.123Y21.687
G1 X31.926Y21.86
G1 X31.705Y22.008
G1 X31.467Y22.125
G1 X31.219Y22.209
G1 X30.963Y22.259
G1 X30.705Y22.276
G1 X30.447Y22.259
G1 X30.191Y22.209
G1 X29.943Y22.125
G1 X29.705Y22.008
G1 X29.484Y21.86
G1 X29.287Y21.687
G1 X29.116Y21.491
G1 X28.973Y21.275
G1 X28.858Y21.043
G1 X28.774Y20.797
G1 X28.722Y20.54
G1 X28.705Y20.275
; Layer C00 Pass 18 of 30
G1 X28.722Y20.01
G1 X28.774Y19.753
G1 X28.858Y19.507
G1 X28.973Y19.275
G1 X29.116Y19.059
G1 X29.287Y18.863
G1 X29.484Y18.69
G1 X29.705Y18.542
G1 X29.943Y18.425
G1 X30.191Y18.341
G1 X30.447Y18.291
G1 X30.705Y18.274
G1 X30.963Y18.291
G1 X31.219Y18.341
G1 X31.467Y18.425
G1 X31.705Y18.542
G1 X31.926Y18.69
G1 X32.123Y18.863
G1 X32.294Y19.059
G1 X32.437Y19.275
G1 X32.552Y19.507
G1 X32.636Y19.753
G1 X32.688Y20.01
G1 X32.705Y20.275
G1 X32.688Y20.54
G1 X32.636Y20.797
G1 X32.552Y21.043
G1 X32.437Y21.275
G1 X32.294Y21.491
G1 X32.123Y21.687
G1 X31.926Y21.86
G1 X31.705Y22.008
G1 X31.467Y22.125
G1 X31.219Y22.209
G1 X30.963Y22.259
G1 X30.705Y22.276
G1 X30.447Y22.259
G1 X30.191Y22.209
G1 X29.943Y22.125
G1 X29.705Y22.008
G1 X29.484Y21.86
G1 X29.287Y21.687
G1 X29.116Y21.491
G1 X28.973Y21.275
G1 X28.858Y21.043
G1 X28.774Y20.797
G1 X28.722Y20.54
G1 X28.705Y20.275
; Layer C00 Pass 19 of 30
G1 X28.722Y20.01
G1 X28.774Y19.753
G1 X28.858Y19.507
G1 X28.973Y19.275
G1 X29.116Y19.059
G1 X29.287Y18.863
G1 X29.484Y18.69
G1 X29.705Y18.542
G1 X29.943Y18.425
G1 X30.191Y18.341
G1 X30.447Y18.291
G1 X30.705Y18.274
G1 X30.963Y18.291
G1 X31.219Y18.341
G1 X31.467Y18.425
G1 X31.705Y18.542
G1 X31.926Y18.69
G1 X32.123Y18.863
G1 X32.294Y19.059
G1 X32.437Y19.275
G1 X32.552Y19.507
G1 X32.636Y19.753
G1 X32.688Y20.01
G1 X32.705Y20.275
G1 X32.688Y20.54
G1 X32.636Y20.797
G1 X32.552Y21.043
G1 X32.437Y21.275
G1 X32.294Y21.491
G1 X32.123Y21.687
G1 X31.926Y21.86
G1 X31.705Y22.008
G1 X31.467Y22.125
G1 X31.219Y22.209
G1 X30.963Y22.259
G1 X30.705Y22.276
G1 X30.447Y22.259
G1 X30.191Y22.209
G1 X29.943Y22.125
G1 X29.705Y22.008
G1 X29.484Y21.86
G1 X29.287Y21.687
G1 X29.116Y21.491
G1 X28.973Y21.275
G1 X28.858Y21.043
G1 X28.774Y20.797
G1 X28.722Y20.54
G1 X28.705Y20.275
; Layer C00 Pass 20 of 30
G1 X28.722Y20.01
G1 X28.774Y19.753
G1 X28.858Y19.507
G1 X28.973Y19.275
G1 X29.116Y19.059
G1 X29.287Y18.863
G1 X29.484Y18.69
G1 X29.705Y18.542
G1 X29.943Y18.425
G1 X30.191Y18.341
G1 X30.447Y18.291
G1 X30.705Y18.274
G1 X30.963Y18.291
G1 X31.219Y18.341
G1 X31.467Y18.425
G1 X31.705Y18.542
G1 X31.926Y18.69
G1 X32.123Y18.863
G1 X32.294Y19.059
G1 X32.437Y19.275
G1 X32.552Y19.507
G1 X32.636Y19.753
G1 X32.688Y20.01
G1 X32.705Y20.275
G1 X32.688Y20.54
G1 X32.636Y20.797
G1 X32.552Y21.043
G1 X32.437Y21.275
G1 X32.294Y21.491
G1 X32.123Y21.687
G1 X31.926Y21.86
G1 X31.705Y22.008
G1 X31.467Y22.125
G1 X31.219Y22.209
G1 X30.963Y22.259
G1 X30.705Y22.276
G1 X30.447Y22.259
G1 X30.191Y22.209
G1 X29.943Y22.125
G1 X29.705Y22.008
G1 X29.484Y21.86
G1 X29.287Y21.687
G1 X29.116Y21.491
G1 X28.973Y21.275
G1 X28.858Y21.043
G1 X28.774Y20.797
G1 X28.722Y20.54
G1 X28.705Y20.275
; Layer C00 Pass 21 of 30
G1 X28.722Y20.01
G1 X28.774Y19.753
G1 X28.858Y19.507
G1 X28.973Y19.275
G1 X29.116Y19.059
G1 X29.287Y18.863
G1 X29.484Y18.69
G1 X29.705Y18.542
G1 X29.943Y18.425
G1 X30.191Y18.341
G1 X30.447Y18.291
G1 X30.705Y18.274
G1 X30.963Y18.291
G1 X31.219Y18.341
G1 X31.467Y18.425
G1 X31.705Y18.542
G1 X31.926Y18.69
G1 X32.123Y18.863
G1 X32.294Y19.059
G1 X32.437Y19.275
G1 X32.552Y19.507
G1 X32.636Y19.753
G1 X32.688Y20.01
G1 X32.705Y20.275
G1 X32.688Y20.54
G1 X32.636Y20.797
G1 X32.552Y21.043
G1 X32.437Y21.275
G1 X32.294Y21.491
G1 X32.123Y21.687
G1 X31.926Y21.86
G1 X31.705Y22.008
G1 X31.467Y22.125
G1 X31.219Y22.209
G1 X30.963Y22.259
G1 X30.705Y22.276
G1 X30.447Y22.259
G1 X30.191Y22.209
G1 X29.943Y22.125
G1 X29.705Y22.008
G1 X29.484Y21.86
G1 X29.287Y21.687
G1 X29.116Y21.491
G1 X28.973Y21.275
G1 X28.858Y21.043
G1 X28.774Y20.797
G1 X28.722Y20.54
G1 X28.705Y20.275
; Layer C00 Pass 22 of 30
G1 X28.722Y20.01
G1 X28.774Y19.753
G1 X28.858Y19.507
G1 X28.973Y19.275
G1 X29.116Y19.059
G1 X29.287Y18.863
G1 X29.484Y18.69
G1 X29.705Y18.542
G1 X29.943Y18.425
G1 X30.191Y18.341
G1 X30.447Y18.291
G1 X30.705Y18.274
G1 X30.963Y18.291
G1 X31.219Y18.341
G1 X31.467Y18.425
G1 X31.705Y18.542
G1 X31.926Y18.69
G1 X32.123Y18.863
G1 X32.294Y19.059
G1 X32.437Y19.275
G1 X32.552Y19.507
G1 X32.636Y19.753
G1 X32.688Y20.01
G1 X32.705Y20.275
G1 X32.688Y20.54
G1 X32.636Y20.797
G1 X32.552Y21.043
G1 X32.437Y21.275
G1 X32.294Y21.491
G1 X32.123Y21.687
G1 X31.926Y21.86
G1 X31.705Y22.008
G1 X31.467Y22.125
G1 X31.219Y22.209
G1 X30.963Y22.259
G1 X30.705Y22.276
G1 X30.447Y22.259
G1 X30.191Y22.209
G1 X29.943Y22.125
G1 X29.705Y22.008
G1 X29.484Y21.86
G1 X29.287Y21.687
G1 X29.116Y21.491
G1 X28.973Y21.275
G1 X28.858Y21.043
G1 X28.774Y20.797
G1 X28.722Y20.54
G1 X28.705Y20.275
; Layer C00 Pass 23 of 30
G1 X28.722Y20.01
G1 X28.774Y19.753
G1 X28.858Y19.507
G1 X28.973Y19.275
G1 X29.116Y19.059
G1 X29.287Y18.863
G1 X29.484Y18.69
G1 X29.705Y18.542
G1 X29.943Y18.425
G1 X30.191Y18.341
G1 X30.447Y18.291
G1 X30.705Y18.274
G1 X30.963Y18.291
G1 X31.219Y18.341
G1 X31.467Y18.425
G1 X31.705Y18.542
G1 X31.926Y18.69
G1 X32.123Y18.863
G1 X32.294Y19.059
G1 X32.437Y19.275
G1 X32.552Y19.507
G1 X32.636Y19.753
G1 X32.688Y20.01
G1 X32.705Y20.275
G1 X32.688Y20.54
G1 X32.636Y20.797
G1 X32.552Y21.043
G1 X32.437Y21.275
G1 X32.294Y21.491
G1 X32.123Y21.687
G1 X31.926Y21.86
G1 X31.705Y22.008
G1 X31.467Y22.125
G1 X31.219Y22.209
G1 X30.963Y22.259
G1 X30.705Y22.276
G1 X30.447Y22.259
G1 X30.191Y22.209
G1 X29.943Y22.125
G1 X29.705Y22.008
G1 X29.484Y21.86
G1 X29.287Y21.687
G1 X29.116Y21.491
G1 X28.973Y21.275
G1 X28.858Y21.043
G1 X28.774Y20.797
G1 X28.722Y20.54
G1 X28.705Y20.275
; Layer C00 Pass 24 of 30
G1 X28.722Y20.01
G1 X28.774Y19.753
G1 X28.858Y19.507
G1 X28.973Y19.275
G1 X29.116Y19.059
G1 X29.287Y18.863
G1 X29.484Y18.69
G1 X29.705Y18.542
G1 X29.943Y18.425
G1 X30.191Y18.341
G1 X30.447Y18.291
G1 X30.705Y18.274
G1 X30.963Y18.291
G1 X31.219Y18.341
G1 X31.467Y18.425
G1 X31.705Y18.542
G1 X31.926Y18.69
G1 X32.123Y18.863
G1 X32.294Y19.059
G1 X32.437Y19.275
G1 X32.552Y19.507
G1 X32.636Y19.753
G1 X32.688Y20.01
G1 X32.705Y20.275
G1 X32.688Y20.54
G1 X32.636Y20.797
G1 X32.552Y21.043
G1 X32.437Y21.275
G1 X32.294Y21.491
G1 X32.123Y21.687
G1 X31.926Y21.86
G1 X31.705Y22.008
G1 X31.467Y22.125
G1 X31.219Y22.209
G1 X30.963Y22.259
G1 X30.705Y22.276
G1 X30.447Y22.259
G1 X30.191Y22.209
G1 X29.943Y22.125
G1 X29.705Y22.008
G1 X29.484Y21.86
G1 X29.287Y21.687
G1 X29.116Y21.491
G1 X28.973Y21.275
G1 X28.858Y21.043
G1 X28.774Y20.797
G1 X28.722Y20.54
G1 X28.705Y20.275
; Layer C00 Pass 25 of 30
G1 X28.722Y20.01
G1 X28.774Y19.753
G1 X28.858Y19.507
G1 X28.973Y19.275
G1 X29.116Y19.059
G1 X29.287Y18.863
G1 X29.484Y18.69
G1 X29.705Y18.542
G1 X29.943Y18.425
G1 X30.191Y18.341
G1 X30.447Y18.291
G1 X30.705Y18.274
G1 X30.963Y18.291
G1 X31.219Y18.341
G1 X31.467Y18.425
G1 X31.705Y18.542
G1 X31.926Y18.69
G1 X32.123Y18.863
G1 X32.294Y19.059
G1 X32.437Y19.275
G1 X32.552Y19.507
G1 X32.636Y19.753
G1 X32.688Y20.01
G1 X32.705Y20.275
G1 X32.688Y20.54
G1 X32.636Y20.797
G1 X32.552Y21.043
G1 X32.437Y21.275
G1 X32.294Y21.491
G1 X32.123Y21.687
G1 X31.926Y21.86
G1 X31.705Y22.008
G1 X31.467Y22.125
G1 X31.219Y22.209
G1 X30.963Y22.259
G1 X30.705Y22.276
G1 X30.447Y22.259
G1 X30.191Y22.209
G1 X29.943Y22.125
G1 X29.705Y22.008
G1 X29.484Y21.86
G1 X29.287Y21.687
G1 X29.116Y21.491
G1 X28.973Y21.275
G1 X28.858Y21.043
G1 X28.774Y20.797
G1 X28.722Y20.54
G1 X28.705Y20.275
; Layer C00 Pass 26 of 30
G1 X28.722Y20.01
G1 X28.774Y19.753
G1 X28.858Y19.507
G1 X28.973Y19.275
G1 X29.116Y19.059
G1 X29.287Y18.863
G1 X29.484Y18.69
G1 X29.705Y18.542
G1 X29.943Y18.425
G1 X30.191Y18.341
G1 X30.447Y18.291
G1 X30.705Y18.274
G1 X30.963Y18.291
G1 X31.219Y18.341
G1 X31.467Y18.425
G1 X31.705Y18.542
G1 X31.926Y18.69
G1 X32.123Y18.863
G1 X32.294Y19.059
G1 X32.437Y19.275
G1 X32.552Y19.507
G1 X32.636Y19.753
G1 X32.688Y20.01
G1 X32.705Y20.275
G1 X32.688Y20.54
G1 X32.636Y20.797
G1 X32.552Y21.043
G1 X32.437Y21.275
G1 X32.294Y21.491
G1 X32.123Y21.687
G1 X31.926Y21.86
G1 X31.705Y22.008
G1 X31.467Y22.125
G1 X31.219Y22.209
G1 X30.963Y22.259
G1 X30.705Y22.276
G1 X30.447Y22.259
G1 X30.191Y22.209
G1 X29.943Y22.125
G1 X29.705Y22.008
G1 X29.484Y21.86
G1 X29.287Y21.687
G1 X29.116Y21.491
G1 X28.973Y21.275
G1 X28.858Y21.043
G1 X28.774Y20.797
G1 X28.722Y20.54
G1 X28.705Y20.275
; Layer C00 Pass 27 of 30
G1 X28.722Y20.01
G1 X28.774Y19.753
G1 X28.858Y19.507
G1 X28.973Y19.275
G1 X29.116Y19.059
G1 X29.287Y18.863
G1 X29.484Y18.69
G1 X29.705Y18.542
G1 X29.943Y18.425
G1 X30.191Y18.341
G1 X30.447Y18.291
G1 X30.705Y18.274
G1 X30.963Y18.291
G1 X31.219Y18.341
G1 X31.467Y18.425
G1 X31.705Y18.542
G1 X31.926Y18.69
G1 X32.123Y18.863
G1 X32.294Y19.059
G1 X32.437Y19.275
G1 X32.552Y19.507
G1 X32.636Y19.753
G1 X32.688Y20.01
G1 X32.705Y20.275
G1 X32.688Y20.54
G1 X32.636Y20.797
G1 X32.552Y21.043
G1 X32.437Y21.275
G1 X32.294Y21.491
G1 X32.123Y21.687
G1 X31.926Y21.86
G1 X31.705Y22.008
G1 X31.467Y22.125
G1 X31.219Y22.209
G1 X30.963Y22.259
G1 X30.705Y22.276
G1 X30.447Y22.259
G1 X30.191Y22.209
G1 X29.943Y22.125
G1 X29.705Y22.008
G1 X29.484Y21.86
G1 X29.287Y21.687
G1 X29.116Y21.491
G1 X28.973Y21.275
G1 X28.858Y21.043
G1 X28.774Y20.797
G1 X28.722Y20.54
G1 X28.705Y20.275
; Layer C00 Pass 28 of 30
G1 X28.722Y20.01
G1 X28.774Y19.753
G1 X28.858Y19.507
G1 X28.973Y19.275
G1 X29.116Y19.059
G1 X29.287Y18.863
G1 X29.484Y18.69
G1 X29.705Y18.542
G1 X29.943Y18.425
G1 X30.191Y18.341
G1 X30.447Y18.291
G1 X30.705Y18.274
G1 X30.963Y18.291
G1 X31.219Y18.341
G1 X31.467Y18.425
G1 X31.705Y18.542
G1 X31.926Y18.69
G1 X32.123Y18.863
G1 X32.294Y19.059
G1 X32.437Y19.275
G1 X32.552Y19.507
G1 X32.636Y19.753
G1 X32.688Y20.01
G1 X32.705Y20.275
G1 X32.688Y20.54
G1 X32.636Y20.797
G1 X32.552Y21.043
G1 X32.437Y21.275
G1 X32.294Y21.491
G1 X32.123Y21.687
G1 X31.926Y21.86
G1 X31.705Y22.008
G1 X31.467Y22.125
G1 X31.219Y22.209
G1 X30.963Y22.259
G1 X30.705Y22.276
G1 X30.447Y22.259
G1 X30.191Y22.209
G1 X29.943Y22.125
G1 X29.705Y22.008
G1 X29.484Y21.86
G1 X29.287Y21.687
G1 X29.116Y21.491
G1 X28.973Y21.275
G1 X28.858Y21.043
G1 X28.774Y20.797
G1 X28.722Y20.54
G1 X28.705Y20.275
; Layer C00 Pass 29 of 30
G1 X28.722Y20.01
G1 X28.774Y19.753
G1 X28.858Y19.507
G1 X28.973Y19.275
G1 X29.116Y19.059
G1 X29.287Y18.863
G1 X29.484Y18.69
G1 X29.705Y18.542
G1 X29.943Y18.425
G1 X30.191Y18.341
G1 X30.447Y18.291
G1 X30.705Y18.274
G1 X30.963Y18.291
G1 X31.219Y18.341
G1 X31.467Y18.425
G1 X31.705Y18.542
G1 X31.926Y18.69
G1 X32.123Y18.863
G1 X32.294Y19.059
G1 X32.437Y19.275
G1 X32.552Y19.507
G1 X32.636Y19.753
G1 X32.688Y20.01
G1 X32.705Y20.275
G1 X32.688Y20.54
G1 X32.636Y20.797
G1 X32.552Y21.043
G1 X32.437Y21.275
G1 X32.294Y21.491
G1 X32.123Y21.687
G1 X31.926Y21.86
G1 X31.705Y22.008
G1 X31.467Y22.125
G1 X31.219Y22.209
G1 X30.963Y22.259
G1 X30.705Y22.276
G1 X30.447Y22.259
G1 X30.191Y22.209
G1 X29.943Y22.125
G1 X29.705Y22.008
G1 X29.484Y21.86
G1 X29.287Y21.687
G1 X29.116Y21.491
G1 X28.973Y21.275
G1 X28.858Y21.043
G1 X28.774Y20.797
G1 X28.722Y20.54
G1 X28.705Y20.275
; Layer C00 Pass 30 of 30
G1 X28.722Y20.01
G1 X28.774Y19.753
G1 X28.858Y19.507
G1 X28.973Y19.275
G1 X29.116Y19.059
G1 X29.287Y18.863
G1 X29.484Y18.69
G1 X29.705Y18.542
G1 X29.943Y18.425
G1 X30.191Y18.341
G1 X30.447Y18.291
G1 X30.705Y18.274
G1 X30.963Y18.291
G1 X31.219Y18.341
G1 X31.467Y18.425
G1 X31.705Y18.542
G1 X31.926Y18.69
G1 X32.123Y18.863
G1 X32.294Y19.059
G1 X32.437Y19.275
G1 X32.552Y19.507
G1 X32.636Y19.753
G1 X32.688Y20.01
G1 X32.705Y20.275
G1 X32.688Y20.54
G1 X32.636Y20.797
G1 X32.552Y21.043
G1 X32.437Y21.275
G1 X32.294Y21.491
G1 X32.123Y21.687
G1 X31.926Y21.86
G1 X31.705Y22.008
G1 X31.467Y22.125
G1 X31.219Y22.209
G1 X30.963Y22.259
G1 X30.705Y22.276
G1 X30.447Y22.259
G1 X30.191Y22.209
G1 X29.943Y22.125
G1 X29.705Y22.008
G1 X29.484Y21.86
G1 X29.287Y21.687
G1 X29.116Y21.491
G1 X28.973Y21.275
G1 X28.858Y21.043
G1 X28.774Y20.797
G1 X28.722Y20.54
G1 X28.705Y20.275
G0 X41.505Y20.275
; Layer C00 Pass 1 of 30
G1 X41.523Y20.01
G1 X41.574Y19.753
G1 X41.658Y19.507
G1 X41.773Y19.275
G1 X41.917Y19.059
G1 X42.088Y18.864
G1 X42.284Y18.69
G1 X42.505Y18.543
G1 X42.743Y18.425
G1 X42.991Y18.342
G1 X43.247Y18.291
G1 X43.505Y18.275
G1 X43.763Y18.291
G1 X44.019Y18.342
G1 X44.267Y18.425
G1 X44.505Y18.543
G1 X44.726Y18.69
G1 X44.922Y18.864
G1 X45.093Y19.059
G1 X45.237Y19.275
G1 X45.352Y19.507
G1 X45.436Y19.753
G1 X45.487Y20.01
G1 X45.505Y20.275
G1 X45.487Y20.54
G1 X45.436Y20.797
G1 X45.352Y21.043
G1 X45.237Y21.275
G1 X45.093Y21.491
G1 X44.922Y21.686
G1 X44.726Y21.86
G1 X44.505Y22.007
G1 X44.267Y22.125
G1 X44.019Y22.208
G1 X43.763Y22.259
G1 X43.505Y22.275
G1 X43.247Y22.259
G1 X42.991Y22.208
G1 X42.743Y22.125
G1 X42.505Y22.007
G1 X42.284Y21.86
G1 X42.088Y21.686
G1 X41.917Y21.491
G1 X41.773Y21.275
G1 X41.658Y21.043
G1 X41.574Y20.797
G1 X41.523Y20.54
G1 X41.505Y20.275
; Layer C00 Pass 2 of 30
G1 X41.523Y20.01
G1 X41.574Y19.753
G1 X41.658Y19.507
G1 X41.773Y19.275
G1 X41.917Y19.059
G1 X42.088Y18.864
G1 X42.284Y18.69
G1 X42.505Y18.543
G1 X42.743Y18.425
G1 X42.991Y18.342
G1 X43.247Y18.291
G1 X43.505Y18.275
G1 X43.763Y18.291
G1 X44.019Y18.342
G1 X44.267Y18.425
G1 X44.505Y18.543
G1 X44.726Y18.69
G1 X44.922Y18.864
G1 X45.093Y19.059
G1 X45.237Y19.275
G1 X45.352Y19.507
G1 X45.436Y19.753
G1 X45.487Y20.01
G1 X45.505Y20.275
G1 X45.487Y20.54
G1 X45.436Y20.797
G1 X45.352Y21.043
G1 X45.237Y21.275
G1 X45.093Y21.491
G1 X44.922Y21.686
G1 X44.726Y21.86
G1 X44.505Y22.007
G1 X44.267Y22.125
G1 X44.019Y22.208
G1 X43.763Y22.259
G1 X43.505Y22.275
G1 X43.247Y22.259
G1 X42.991Y22.208
G1 X42.743Y22.125
G1 X42.505Y22.007
G1 X42.284Y21.86
G1 X42.088Y21.686
G1 X41.917Y21.491
G1 X41.773Y21.275
G1 X41.658Y21.043
G1 X41.574Y20.797
G1 X41.523Y20.54
G1 X41.505Y20.275
; Layer C00 Pass 3 of 30
G1 X41.523Y20.01
G1 X41.574Y19.753
G1 X41.658Y19.507
G1 X41.773Y19.275
G1 X41.917Y19.059
G1 X42.088Y18.864
G1 X42.284Y18.69
G1 X42.505Y18.543
G1 X42.743Y18.425
G1 X42.991Y18.342
G1 X43.247Y18.291
G1 X43.505Y18.275
G1 X43.763Y18.291
G1 X44.019Y18.342
G1 X44.267Y18.425
G1 X44.505Y18.543
G1 X44.726Y18.69
G1 X44.922Y18.864
G1 X45.093Y19.059
G1 X45.237Y19.275
G1 X45.352Y19.507
G1 X45.436Y19.753
G1 X45.487Y20.01
G1 X45.505Y20.275
G1 X45.487Y20.54
G1 X45.436Y20.797
G1 X45.352Y21.043
G1 X45.237Y21.275
G1 X45.093Y21.491
G1 X44.922Y21.686
G1 X44.726Y21.86
G1 X44.505Y22.007
G1 X44.267Y22.125
G1 X44.019Y22.208
G1 X43.763Y22.259
G1 X43.505Y22.275
G1 X43.247Y22.259
G1 X42.991Y22.208
G1 X42.743Y22.125
G1 X42.505Y22.007
G1 X42.284Y21.86
G1 X42.088Y21.686
G1 X41.917Y21.491
G1 X41.773Y21.275
G1 X41.658Y21.043
G1 X41.574Y20.797
G1 X41.523Y20.54
G1 X41.505Y20.275
; Layer C00 Pass 4 of 30
G1 X41.523Y20.01
G1 X41.574Y19.753
G1 X41.658Y19.507
G1 X41.773Y19.275
G1 X41.917Y19.059
G1 X42.088Y18.864
G1 X42.284Y18.69
G1 X42.505Y18.543
G1 X42.743Y18.425
G1 X42.991Y18.342
G1 X43.247Y18.291
G1 X43.505Y18.275
G1 X43.763Y18.291
G1 X44.019Y18.342
G1 X44.267Y18.425
G1 X44.505Y18.543
G1 X44.726Y18.69
G1 X44.922Y18.864
G1 X45.093Y19.059
G1 X45.237Y19.275
G1 X45.352Y19.507
G1 X45.436Y19.753
G1 X45.487Y20.01
G1 X45.505Y20.275
G1 X45.487Y20.54
G1 X45.436Y20.797
G1 X45.352Y21.043
G1 X45.237Y21.275
G1 X45.093Y21.491
G1 X44.922Y21.686
G1 X44.726Y21.86
G1 X44.505Y22.007
G1 X44.267Y22.125
G1 X44.019Y22.208
G1 X43.763Y22.259
G1 X43.505Y22.275
G1 X43.247Y22.259
G1 X42.991Y22.208
G1 X42.743Y22.125
G1 X42.505Y22.007
G1 X42.284Y21.86
G1 X42.088Y21.686
G1 X41.917Y21.491
G1 X41.773Y21.275
G1 X41.658Y21.043
G1 X41.574Y20.797
G1 X41.523Y20.54
G1 X41.505Y20.275
; Layer C00 Pass 5 of 30
G1 X41.523Y20.01
G1 X41.574Y19.753
G1 X41.658Y19.507
G1 X41.773Y19.275
G1 X41.917Y19.059
G1 X42.088Y18.864
G1 X42.284Y18.69
G1 X42.505Y18.543
G1 X42.743Y18.425
G1 X42.991Y18.342
G1 X43.247Y18.291
G1 X43.505Y18.275
G1 X43.763Y18.291
G1 X44.019Y18.342
G1 X44.267Y18.425
G1 X44.505Y18.543
G1 X44.726Y18.69
G1 X44.922Y18.864
G1 X45.093Y19.059
G1 X45.237Y19.275
G1 X45.352Y19.507
G1 X45.436Y19.753
G1 X45.487Y20.01
G1 X45.505Y20.275
G1 X45.487Y20.54
G1 X45.436Y20.797
G1 X45.352Y21.043
G1 X45.237Y21.275
G1 X45.093Y21.491
G1 X44.922Y21.686
G1 X44.726Y21.86
G1 X44.505Y22.007
G1 X44.267Y22.125
G1 X44.019Y22.208
G1 X43.763Y22.259
G1 X43.505Y22.275
G1 X43.247Y22.259
G1 X42.991Y22.208
G1 X42.743Y22.125
G1 X42.505Y22.007
G1 X42.284Y21.86
G1 X42.088Y21.686
G1 X41.917Y21.491
G1 X41.773Y21.275
G1 X41.658Y21.043
G1 X41.574Y20.797
G1 X41.523Y20.54
G1 X41.505Y20.275
; Layer C00 Pass 6 of 30
G1 X41.523Y20.01
G1 X41.574Y19.753
G1 X41.658Y19.507
G1 X41.773Y19.275
G1 X41.917Y19.059
G1 X42.088Y18.864
G1 X42.284Y18.69
G1 X42.505Y18.543
G1 X42.743Y18.425
G1 X42.991Y18.342
G1 X43.247Y18.291
G1 X43.505Y18.275
G1 X43.763Y18.291
G1 X44.019Y18.342
G1 X44.267Y18.425
G1 X44.505Y18.543
G1 X44.726Y18.69
G1 X44.922Y18.864
G1 X45.093Y19.059
G1 X45.237Y19.275
G1 X45.352Y19.507
G1 X45.436Y19.753
G1 X45.487Y20.01
G1 X45.505Y20.275
G1 X45.487Y20.54
G1 X45.436Y20.797
G1 X45.352Y21.043
G1 X45.237Y21.275
G1 X45.093Y21.491
G1 X44.922Y21.686
G1 X44.726Y21.86
G1 X44.505Y22.007
G1 X44.267Y22.125
G1 X44.019Y22.208
G1 X43.763Y22.259
G1 X43.505Y22.275
G1 X43.247Y22.259
G1 X42.991Y22.208
G1 X42.743Y22.125
G1 X42.505Y22.007
G1 X42.284Y21.86
G1 X42.088Y21.686
G1 X41.917Y21.491
G1 X41.773Y21.275
G1 X41.658Y21.043
G1 X41.574Y20.797
G1 X41.523Y20.54
G1 X41.505Y20.275
; Layer C00 Pass 7 of 30
G1 X41.523Y20.01
G1 X41.574Y19.753
G1 X41.658Y19.507
G1 X41.773Y19.275
G1 X41.917Y19.059
G1 X42.088Y18.864
G1 X42.284Y18.69
G1 X42.505Y18.543
G1 X42.743Y18.425
G1 X42.991Y18.342
G1 X43.247Y18.291
G1 X43.505Y18.275
G1 X43.763Y18.291
G1 X44.019Y18.342
G1 X44.267Y18.425
G1 X44.505Y18.543
G1 X44.726Y18.69
G1 X44.922Y18.864
G1 X45.093Y19.059
G1 X45.237Y19.275
G1 X45.352Y19.507
G1 X45.436Y19.753
G1 X45.487Y20.01
G1 X45.505Y20.275
G1 X45.487Y20.54
G1 X45.436Y20.797
G1 X45.352Y21.043
G1 X45.237Y21.275
G1 X45.093Y21.491
G1 X44.922Y21.686
G1 X44.726Y21.86
G1 X44.505Y22.007
G1 X44.267Y22.125
G1 X44.019Y22.208
G1 X43.763Y22.259
G1 X43.505Y22.275
G1 X43.247Y22.259
G1 X42.991Y22.208
G1 X42.743Y22.125
G1 X42.505Y22.007
G1 X42.284Y21.86
G1 X42.088Y21.686
G1 X41.917Y21.491
G1 X41.773Y21.275
G1 X41.658Y21.043
G1 X41.574Y20.797
G1 X41.523Y20.54
G1 X41.505Y20.275
; Layer C00 Pass 8 of 30
G1 X41.523Y20.01
G1 X41.574Y19.753
G1 X41.658Y19.507
G1 X41.773Y19.275
G1 X41.917Y19.059
G1 X42.088Y18.864
G1 X42.284Y18.69
G1 X42.505Y18.543
G1 X42.743Y18.425
G1 X42.991Y18.342
G1 X43.247Y18.291
G1 X43.505Y18.275
G1 X43.763Y18.291
G1 X44.019Y18.342
G1 X44.267Y18.425
G1 X44.505Y18.543
G1 X44.726Y18.69
G1 X44.922Y18.864
G1 X45.093Y19.059
G1 X45.237Y19.275
G1 X45.352Y19.507
G1 X45.436Y19.753
G1 X45.487Y20.01
G1 X45.505Y20.275
G1 X45.487Y20.54
G1 X45.436Y20.797
G1 X45.352Y21.043
G1 X45.237Y21.275
G1 X45.093Y21.491
G1 X44.922Y21.686
G1 X44.726Y21.86
G1 X44.505Y22.007
G1 X44.267Y22.125
G1 X44.019Y22.208
G1 X43.763Y22.259
G1 X43.505Y22.275
G1 X43.247Y22.259
G1 X42.991Y22.208
G1 X42.743Y22.125
G1 X42.505Y22.007
G1 X42.284Y21.86
G1 X42.088Y21.686
G1 X41.917Y21.491
G1 X41.773Y21.275
G1 X41.658Y21.043
G1 X41.574Y20.797
G1 X41.523Y20.54
G1 X41.505Y20.275
; Layer C00 Pass 9 of 30
G1 X41.523Y20.01
G1 X41.574Y19.753
G1 X41.658Y19.507
G1 X41.773Y19.275
G1 X41.917Y19.059
G1 X42.088Y18.864
G1 X42.284Y18.69
G1 X42.505Y18.543
G1 X42.743Y18.425
G1 X42.991Y18.342
G1 X43.247Y18.291
G1 X43.505Y18.275
G1 X43.763Y18.291
G1 X44.019Y18.342
G1 X44.267Y18.425
G1 X44.505Y18.543
G1 X44.726Y18.69
G1 X44.922Y18.864
G1 X45.093Y19.059
G1 X45.237Y19.275
G1 X45.352Y19.507
G1 X45.436Y19.753
G1 X45.487Y20.01
G1 X45.505Y20.275
G1 X45.487Y20.54
G1 X45.436Y20.797
G1 X45.352Y21.043
G1 X45.237Y21.275
G1 X45.093Y21.491
G1 X44.922Y21.686
G1 X44.726Y21.86
G1 X44.505Y22.007
G1 X44.267Y22.125
G1 X44.019Y22.208
G1 X43.763Y22.259
G1 X43.505Y22.275
G1 X43.247Y22.259
G1 X42.991Y22.208
G1 X42.743Y22.125
G1 X42.505Y22.007
G1 X42.284Y21.86
G1 X42.088Y21.686
G1 X41.917Y21.491
G1 X41.773Y21.275
G1 X41.658Y21.043
G1 X41.574Y20.797
G1 X41.523Y20.54
G1 X41.505Y20.275
; Layer C00 Pass 10 of 30
G1 X41.523Y20.01
G1 X41.574Y19.753
G1 X41.658Y19.507
G1 X41.773Y19.275
G1 X41.917Y19.059
G1 X42.088Y18.864
G1 X42.284Y18.69
G1 X42.505Y18.543
G1 X42.743Y18.425
G1 X42.991Y18.342
G1 X43.247Y18.291
G1 X43.505Y18.275
G1 X43.763Y18.291
G1 X44.019Y18.342
G1 X44.267Y18.425
G1 X44.505Y18.543
G1 X44.726Y18.69
G1 X44.922Y18.864
G1 X45.093Y19.059
G1 X45.237Y19.275
G1 X45.352Y19.507
G1 X45.436Y19.753
G1 X45.487Y20.01
G1 X45.505Y20.275
G1 X45.487Y20.54
G1 X45.436Y20.797
G1 X45.352Y21.043
G1 X45.237Y21.275
G1 X45.093Y21.491
G1 X44.922Y21.686
G1 X44.726Y21.86
G1 X44.505Y22.007
G1 X44.267Y22.125
G1 X44.019Y22.208
G1 X43.763Y22.259
G1 X43.505Y22.275
G1 X43.247Y22.259
G1 X42.991Y22.208
G1 X42.743Y22.125
G1 X42.505Y22.007
G1 X42.284Y21.86
G1 X42.088Y21.686
G1 X41.917Y21.491
G1 X41.773Y21.275
G1 X41.658Y21.043
G1 X41.574Y20.797
G1 X41.523Y20.54
G1 X41.505Y20.275
; Layer C00 Pass 11 of 30
G1 X41.523Y20.01
G1 X41.574Y19.753
G1 X41.658Y19.507
G1 X41.773Y19.275
G1 X41.917Y19.059
G1 X42.088Y18.864
G1 X42.284Y18.69
G1 X42.505Y18.543
G1 X42.743Y18.425
G1 X42.991Y18.342
G1 X43.247Y18.291
G1 X43.505Y18.275
G1 X43.763Y18.291
G1 X44.019Y18.342
G1 X44.267Y18.425
G1 X44.505Y18.543
G1 X44.726Y18.69
G1 X44.922Y18.864
G1 X45.093Y19.059
G1 X45.237Y19.275
G1 X45.352Y19.507
G1 X45.436Y19.753
G1 X45.487Y20.01
G1 X45.505Y20.275
G1 X45.487Y20.54
G1 X45.436Y20.797
G1 X45.352Y21.043
G1 X45.237Y21.275
G1 X45.093Y21.491
G1 X44.922Y21.686
G1 X44.726Y21.86
G1 X44.505Y22.007
G1 X44.267Y22.125
G1 X44.019Y22.208
G1 X43.763Y22.259
G1 X43.505Y22.275
G1 X43.247Y22.259
G1 X42.991Y22.208
G1 X42.743Y22.125
G1 X42.505Y22.007
G1 X42.284Y21.86
G1 X42.088Y21.686
G1 X41.917Y21.491
G1 X41.773Y21.275
G1 X41.658Y21.043
G1 X41.574Y20.797
G1 X41.523Y20.54
G1 X41.505Y20.275
; Layer C00 Pass 12 of 30
G1 X41.523Y20.01
G1 X41.574Y19.753
G1 X41.658Y19.507
G1 X41.773Y19.275
G1 X41.917Y19.059
G1 X42.088Y18.864
G1 X42.284Y18.69
G1 X42.505Y18.543
G1 X42.743Y18.425
G1 X42.991Y18.342
G1 X43.247Y18.291
G1 X43.505Y18.275
G1 X43.763Y18.291
G1 X44.019Y18.342
G1 X44.267Y18.425
G1 X44.505Y18.543
G1 X44.726Y18.69
G1 X44.922Y18.864
G1 X45.093Y19.059
G1 X45.237Y19.275
G1 X45.352Y19.507
G1 X45.436Y19.753
G1 X45.487Y20.01
G1 X45.505Y20.275
G1 X45.487Y20.54
G1 X45.436Y20.797
G1 X45.352Y21.043
G1 X45.237Y21.275
G1 X45.093Y21.491
G1 X44.922Y21.686
G1 X44.726Y21.86
G1 X44.505Y22.007
G1 X44.267Y22.125
G1 X44.019Y22.208
G1 X43.763Y22.259
G1 X43.505Y22.275
G1 X43.247Y22.259
G1 X42.991Y22.208
G1 X42.743Y22.125
G1 X42.505Y22.007
G1 X42.284Y21.86
G1 X42.088Y21.686
G1 X41.917Y21.491
G1 X41.773Y21.275
G1 X41.658Y21.043
G1 X41.574Y20.797
G1 X41.523Y20.54
G1 X41.505Y20.275
; Layer C00 Pass 13 of 30
G1 X41.523Y20.01
G1 X41.574Y19.753
G1 X41.658Y19.507
G1 X41.773Y19.275
G1 X41.917Y19.059
G1 X42.088Y18.864
G1 X42.284Y18.69
G1 X42.505Y18.543
G1 X42.743Y18.425
G1 X42.991Y18.342
G1 X43.247Y18.291
G1 X43.505Y18.275
G1 X43.763Y18.291
G1 X44.019Y18.342
G1 X44.267Y18.425
G1 X44.505Y18.543
G1 X44.726Y18.69
G1 X44.922Y18.864
G1 X45.093Y19.059
G1 X45.237Y19.275
G1 X45.352Y19.507
G1 X45.436Y19.753
G1 X45.487Y20.01
G1 X45.505Y20.275
G1 X45.487Y20.54
G1 X45.436Y20.797
G1 X45.352Y21.043
G1 X45.237Y21.275
G1 X45.093Y21.491
G1 X44.922Y21.686
G1 X44.726Y21.86
G1 X44.505Y22.007
G1 X44.267Y22.125
G1 X44.019Y22.208
G1 X43.763Y22.259
G1 X43.505Y22.275
G1 X43.247Y22.259
G1 X42.991Y22.208
G1 X42.743Y22.125
G1 X42.505Y22.007
G1 X42.284Y21.86
G1 X42.088Y21.686
G1 X41.917Y21.491
G1 X41.773Y21.275
G1 X41.658Y21.043
G1 X41.574Y20.797
G1 X41.523Y20.54
G1 X41.505Y20.275
; Layer C00 Pass 14 of 30
G1 X41.523Y20.01
G1 X41.574Y19.753
G1 X41.658Y19.507
G1 X41.773Y19.275
G1 X41.917Y19.059
G1 X42.088Y18.864
G1 X42.284Y18.69
G1 X42.505Y18.543
G1 X42.743Y18.425
G1 X42.991Y18.342
G1 X43.247Y18.291
G1 X43.505Y18.275
G1 X43.763Y18.291
G1 X44.019Y18.342
G1 X44.267Y18.425
G1 X44.505Y18.543
G1 X44.726Y18.69
G1 X44.922Y18.864
G1 X45.093Y19.059
G1 X45.237Y19.275
G1 X45.352Y19.507
G1 X45.436Y19.753
G1 X45.487Y20.01
G1 X45.505Y20.275
G1 X45.487Y20.54
G1 X45.436Y20.797
G1 X45.352Y21.043
G1 X45.237Y21.275
G1 X45.093Y21.491
G1 X44.922Y21.686
G1 X44.726Y21.86
G1 X44.505Y22.007
G1 X44.267Y22.125
G1 X44.019Y22.208
G1 X43.763Y22.259
G1 X43.505Y22.275
G1 X43.247Y22.259
G1 X42.991Y22.208
G1 X42.743Y22.125
G1 X42.505Y22.007
G1 X42.284Y21.86
G1 X42.088Y21.686
G1 X41.917Y21.491
G1 X41.773Y21.275
G1 X41.658Y21.043
G1 X41.574Y20.797
G1 X41.523Y20.54
G1 X41.505Y20.275
; Layer C00 Pass 15 of 30
G1 X41.523Y20.01
G1 X41.574Y19.753
G1 X41.658Y19.507
G1 X41.773Y19.275
G1 X41.917Y19.059
G1 X42.088Y18.864
G1 X42.284Y18.69
G1 X42.505Y18.543
G1 X42.743Y18.425
G1 X42.991Y18.342
G1 X43.247Y18.291
G1 X43.505Y18.275
G1 X43.763Y18.291
G1 X44.019Y18.342
G1 X44.267Y18.425
G1 X44.505Y18.543
G1 X44.726Y18.69
G1 X44.922Y18.864
G1 X45.093Y19.059
G1 X45.237Y19.275
G1 X45.352Y19.507
G1 X45.436Y19.753
G1 X45.487Y20.01
G1 X45.505Y20.275
G1 X45.487Y20.54
G1 X45.436Y20.797
G1 X45.352Y21.043
G1 X45.237Y21.275
G1 X45.093Y21.491
G1 X44.922Y21.686
G1 X44.726Y21.86
G1 X44.505Y22.007
G1 X44.267Y22.125
G1 X44.019Y22.208
G1 X43.763Y22.259
G1 X43.505Y22.275
G1 X43.247Y22.259
G1 X42.991Y22.208
G1 X42.743Y22.125
G1 X42.505Y22.007
G1 X42.284Y21.86
G1 X42.088Y21.686
G1 X41.917Y21.491
G1 X41.773Y21.275
G1 X41.658Y21.043
G1 X41.574Y20.797
G1 X41.523Y20.54
G1 X41.505Y20.275
; Layer C00 Pass 16 of 30
G1 X41.523Y20.01
G1 X41.574Y19.753
G1 X41.658Y19.507
G1 X41.773Y19.275
G1 X41.917Y19.059
G1 X42.088Y18.864
G1 X42.284Y18.69
G1 X42.505Y18.543
G1 X42.743Y18.425
G1 X42.991Y18.342
G1 X43.247Y18.291
G1 X43.505Y18.275
G1 X43.763Y18.291
G1 X44.019Y18.342
G1 X44.267Y18.425
G1 X44.505Y18.543
G1 X44.726Y18.69
G1 X44.922Y18.864
G1 X45.093Y19.059
G1 X45.237Y19.275
G1 X45.352Y19.507
G1 X45.436Y19.753
G1 X45.487Y20.01
G1 X45.505Y20.275
G1 X45.487Y20.54
G1 X45.436Y20.797
G1 X45.352Y21.043
G1 X45.237Y21.275
G1 X45.093Y21.491
G1 X44.922Y21.686
G1 X44.726Y21.86
G1 X44.505Y22.007
G1 X44.267Y22.125
G1 X44.019Y22.208
G1 X43.763Y22.259
G1 X43.505Y22.275
G1 X43.247Y22.259
G1 X42.991Y22.208
G1 X42.743Y22.125
G1 X42.505Y22.007
G1 X42.284Y21.86
G1 X42.088Y21.686
G1 X41.917Y21.491
G1 X41.773Y21.275
G1 X41.658Y21.043
G1 X41.574Y20.797
G1 X41.523Y20.54
G1 X41.505Y20.275
; Layer C00 Pass 17 of 30
G1 X41.523Y20.01
G1 X41.574Y19.753
G1 X41.658Y19.507
G1 X41.773Y19.275
G1 X41.917Y19.059
G1 X42.088Y18.864
G1 X42.284Y18.69
G1 X42.505Y18.543
G1 X42.743Y18.425
G1 X42.991Y18.342
G1 X43.247Y18.291
G1 X43.505Y18.275
G1 X43.763Y18.291
G1 X44.019Y18.342
G1 X44.267Y18.425
G1 X44.505Y18.543
G1 X44.726Y18.69
G1 X44.922Y18.864
G1 X45.093Y19.059
G1 X45.237Y19.275
G1 X45.352Y19.507
G1 X45.436Y19.753
G1 X45.487Y20.01
G1 X45.505Y20.275
G1 X45.487Y20.54
G1 X45.436Y20.797
G1 X45.352Y21.043
G1 X45.237Y21.275
G1 X45.093Y21.491
G1 X44.922Y21.686
G1 X44.726Y21.86
G1 X44.505Y22.007
G1 X44.267Y22.125
G1 X44.019Y22.208
G1 X43.763Y22.259
G1 X43.505Y22.275
G1 X43.247Y22.259
G1 X42.991Y22.208
G1 X42.743Y22.125
G1 X42.505Y22.007
G1 X42.284Y21.86
G1 X42.088Y21.686
G1 X41.917Y21.491
G1 X41.773Y21.275
G1 X41.658Y21.043
G1 X41.574Y20.797
G1 X41.523Y20.54
G1 X41.505Y20.275
; Layer C00 Pass 18 of 30
G1 X41.523Y20.01
G1 X41.574Y19.753
G1 X41.658Y19.507
G1 X41.773Y19.275
G1 X41.917Y19.059
G1 X42.088Y18.864
G1 X42.284Y18.69
G1 X42.505Y18.543
G1 X42.743Y18.425
G1 X42.991Y18.342
G1 X43.247Y18.291
G1 X43.505Y18.275
G1 X43.763Y18.291
G1 X44.019Y18.342
G1 X44.267Y18.425
G1 X44.505Y18.543
G1 X44.726Y18.69
G1 X44.922Y18.864
G1 X45.093Y19.059
G1 X45.237Y19.275
G1 X45.352Y19.507
G1 X45.436Y19.753
G1 X45.487Y20.01
G1 X45.505Y20.275
G1 X45.487Y20.54
G1 X45.436Y20.797
G1 X45.352Y21.043
G1 X45.237Y21.275
G1 X45.093Y21.491
G1 X44.922Y21.686
G1 X44.726Y21.86
G1 X44.505Y22.007
G1 X44.267Y22.125
G1 X44.019Y22.208
G1 X43.763Y22.259
G1 X43.505Y22.275
G1 X43.247Y22.259
G1 X42.991Y22.208
G1 X42.743Y22.125
G1 X42.505Y22.007
G1 X42.284Y21.86
G1 X42.088Y21.686
G1 X41.917Y21.491
G1 X41.773Y21.275
G1 X41.658Y21.043
G1 X41.574Y20.797
G1 X41.523Y20.54
G1 X41.505Y20.275
; Layer C00 Pass 19 of 30
G1 X41.523Y20.01
G1 X41.574Y19.753
G1 X41.658Y19.507
G1 X41.773Y19.275
G1 X41.917Y19.059
G1 X42.088Y18.864
G1 X42.284Y18.69
G1 X42.505Y18.543
G1 X42.743Y18.425
G1 X42.991Y18.342
G1 X43.247Y18.291
G1 X43.505Y18.275
G1 X43.763Y18.291
G1 X44.019Y18.342
G1 X44.267Y18.425
G1 X44.505Y18.543
G1 X44.726Y18.69
G1 X44.922Y18.864
G1 X45.093Y19.059
G1 X45.237Y19.275
G1 X45.352Y19.507
G1 X45.436Y19.753
G1 X45.487Y20.01
G1 X45.505Y20.275
G1 X45.487Y20.54
G1 X45.436Y20.797
G1 X45.352Y21.043
G1 X45.237Y21.275
G1 X45.093Y21.491
G1 X44.922Y21.686
G1 X44.726Y21.86
G1 X44.505Y22.007
G1 X44.267Y22.125
G1 X44.019Y22.208
G1 X43.763Y22.259
G1 X43.505Y22.275
G1 X43.247Y22.259
G1 X42.991Y22.208
G1 X42.743Y22.125
G1 X42.505Y22.007
G1 X42.284Y21.86
G1 X42.088Y21.686
G1 X41.917Y21.491
G1 X41.773Y21.275
G1 X41.658Y21.043
G1 X41.574Y20.797
G1 X41.523Y20.54
G1 X41.505Y20.275
; Layer C00 Pass 20 of 30
G1 X41.523Y20.01
G1 X41.574Y19.753
G1 X41.658Y19.507
G1 X41.773Y19.275
G1 X41.917Y19.059
G1 X42.088Y18.864
G1 X42.284Y18.69
G1 X42.505Y18.543
G1 X42.743Y18.425
G1 X42.991Y18.342
G1 X43.247Y18.291
G1 X43.505Y18.275
G1 X43.763Y18.291
G1 X44.019Y18.342
G1 X44.267Y18.425
G1 X44.505Y18.543
G1 X44.726Y18.69
G1 X44.922Y18.864
G1 X45.093Y19.059
G1 X45.237Y19.275
G1 X45.352Y19.507
G1 X45.436Y19.753
G1 X45.487Y20.01
G1 X45.505Y20.275
G1 X45.487Y20.54
G1 X45.436Y20.797
G1 X45.352Y21.043
G1 X45.237Y21.275
G1 X45.093Y21.491
G1 X44.922Y21.686
G1 X44.726Y21.86
G1 X44.505Y22.007
G1 X44.267Y22.125
G1 X44.019Y22.208
G1 X43.763Y22.259
G1 X43.505Y22.275
G1 X43.247Y22.259
G1 X42.991Y22.208
G1 X42.743Y22.125
G1 X42.505Y22.007
G1 X42.284Y21.86
G1 X42.088Y21.686
G1 X41.917Y21.491
G1 X41.773Y21.275
G1 X41.658Y21.043
G1 X41.574Y20.797
G1 X41.523Y20.54
G1 X41.505Y20.275
; Layer C00 Pass 21 of 30
G1 X41.523Y20.01
G1 X41.574Y19.753
G1 X41.658Y19.507
G1 X41.773Y19.275
G1 X41.917Y19.059
G1 X42.088Y18.864
G1 X42.284Y18.69
G1 X42.505Y18.543
G1 X42.743Y18.425
G1 X42.991Y18.342
G1 X43.247Y18.291
G1 X43.505Y18.275
G1 X43.763Y18.291
G1 X44.019Y18.342
G1 X44.267Y18.425
G1 X44.505Y18.543
G1 X44.726Y18.69
G1 X44.922Y18.864
G1 X45.093Y19.059
G1 X45.237Y19.275
G1 X45.352Y19.507
G1 X45.436Y19.753
G1 X45.487Y20.01
G1 X45.505Y20.275
G1 X45.487Y20.54
G1 X45.436Y20.797
G1 X45.352Y21.043
G1 X45.237Y21.275
G1 X45.093Y21.491
G1 X44.922Y21.686
G1 X44.726Y21.86
G1 X44.505Y22.007
G1 X44.267Y22.125
G1 X44.019Y22.208
G1 X43.763Y22.259
G1 X43.505Y22.275
G1 X43.247Y22.259
G1 X42.991Y22.208
G1 X42.743Y22.125
G1 X42.505Y22.007
G1 X42.284Y21.86
G1 X42.088Y21.686
G1 X41.917Y21.491
G1 X41.773Y21.275
G1 X41.658Y21.043
G1 X41.574Y20.797
G1 X41.523Y20.54
G1 X41.505Y20.275
; Layer C00 Pass 22 of 30
G1 X41.523Y20.01
G1 X41.574Y19.753
G1 X41.658Y19.507
G1 X41.773Y19.275
G1 X41.917Y19.059
G1 X42.088Y18.864
G1 X42.284Y18.69
G1 X42.505Y18.543
G1 X42.743Y18.425
G1 X42.991Y18.342
G1 X43.247Y18.291
G1 X43.505Y18.275
G1 X43.763Y18.291
G1 X44.019Y18.342
G1 X44.267Y18.425
G1 X44.505Y18.543
G1 X44.726Y18.69
G1 X44.922Y18.864
G1 X45.093Y19.059
G1 X45.237Y19.275
G1 X45.352Y19.507
G1 X45.436Y19.753
G1 X45.487Y20.01
G1 X45.505Y20.275
G1 X45.487Y20.54
G1 X45.436Y20.797
G1 X45.352Y21.043
G1 X45.237Y21.275
G1 X45.093Y21.491
G1 X44.922Y21.686
G1 X44.726Y21.86
G1 X44.505Y22.007
G1 X44.267Y22.125
G1 X44.019Y22.208
G1 X43.763Y22.259
G1 X43.505Y22.275
G1 X43.247Y22.259
G1 X42.991Y22.208
G1 X42.743Y22.125
G1 X42.505Y22.007
G1 X42.284Y21.86
G1 X42.088Y21.686
G1 X41.917Y21.491
G1 X41.773Y21.275
G1 X41.658Y21.043
G1 X41.574Y20.797
G1 X41.523Y20.54
G1 X41.505Y20.275
; Layer C00 Pass 23 of 30
G1 X41.523Y20.01
G1 X41.574Y19.753
G1 X41.658Y19.507
G1 X41.773Y19.275
G1 X41.917Y19.059
G1 X42.088Y18.864
G1 X42.284Y18.69
G1 X42.505Y18.543
G1 X42.743Y18.425
G1 X42.991Y18.342
G1 X43.247Y18.291
G1 X43.505Y18.275
G1 X43.763Y18.291
G1 X44.019Y18.342
G1 X44.267Y18.425
G1 X44.505Y18.543
G1 X44.726Y18.69
G1 X44.922Y18.864
G1 X45.093Y19.059
G1 X45.237Y19.275
G1 X45.352Y19.507
G1 X45.436Y19.753
G1 X45.487Y20.01
G1 X45.505Y20.275
G1 X45.487Y20.54
G1 X45.436Y20.797
G1 X45.352Y21.043
G1 X45.237Y21.275
G1 X45.093Y21.491
G1 X44.922Y21.686
G1 X44.726Y21.86
G1 X44.505Y22.007
G1 X44.267Y22.125
G1 X44.019Y22.208
G1 X43.763Y22.259
G1 X43.505Y22.275
G1 X43.247Y22.259
G1 X42.991Y22.208
G1 X42.743Y22.125
G1 X42.505Y22.007
G1 X42.284Y21.86
G1 X42.088Y21.686
G1 X41.917Y21.491
G1 X41.773Y21.275
G1 X41.658Y21.043
G1 X41.574Y20.797
G1 X41.523Y20.54
G1 X41.505Y20.275
; Layer C00 Pass 24 of 30
G1 X41.523Y20.01
G1 X41.574Y19.753
G1 X41.658Y19.507
G1 X41.773Y19.275
G1 X41.917Y19.059
G1 X42.088Y18.864
G1 X42.284Y18.69
G1 X42.505Y18.543
G1 X42.743Y18.425
G1 X42.991Y18.342
G1 X43.247Y18.291
G1 X43.505Y18.275
G1 X43.763Y18.291
G1 X44.019Y18.342
G1 X44.267Y18.425
G1 X44.505Y18.543
G1 X44.726Y18.69
G1 X44.922Y18.864
G1 X45.093Y19.059
G1 X45.237Y19.275
G1 X45.352Y19.507
G1 X45.436Y19.753
G1 X45.487Y20.01
G1 X45.505Y20.275
G1 X45.487Y20.54
G1 X45.436Y20.797
G1 X45.352Y21.043
G1 X45.237Y21.275
G1 X45.093Y21.491
G1 X44.922Y21.686
G1 X44.726Y21.86
G1 X44.505Y22.007
G1 X44.267Y22.125
G1 X44.019Y22.208
G1 X43.763Y22.259
G1 X43.505Y22.275
G1 X43.247Y22.259
G1 X42.991Y22.208
G1 X42.743Y22.125
G1 X42.505Y22.007
G1 X42.284Y21.86
G1 X42.088Y21.686
G1 X41.917Y21.491
G1 X41.773Y21.275
G1 X41.658Y21.043
G1 X41.574Y20.797
G1 X41.523Y20.54
G1 X41.505Y20.275
; Layer C00 Pass 25 of 30
G1 X41.523Y20.01
G1 X41.574Y19.753
G1 X41.658Y19.507
G1 X41.773Y19.275
G1 X41.917Y19.059
G1 X42.088Y18.864
G1 X42.284Y18.69
G1 X42.505Y18.543
G1 X42.743Y18.425
G1 X42.991Y18.342
G1 X43.247Y18.291
G1 X43.505Y18.275
G1 X43.763Y18.291
G1 X44.019Y18.342
G1 X44.267Y18.425
G1 X44.505Y18.543
G1 X44.726Y18.69
G1 X44.922Y18.864
G1 X45.093Y19.059
G1 X45.237Y19.275
G1 X45.352Y19.507
G1 X45.436Y19.753
G1 X45.487Y20.01
G1 X45.505Y20.275
G1 X45.487Y20.54
G1 X45.436Y20.797
G1 X45.352Y21.043
G1 X45.237Y21.275
G1 X45.093Y21.491
G1 X44.922Y21.686
G1 X44.726Y21.86
G1 X44.505Y22.007
G1 X44.267Y22.125
G1 X44.019Y22.208
G1 X43.763Y22.259
G1 X43.505Y22.275
G1 X43.247Y22.259
G1 X42.991Y22.208
G1 X42.743Y22.125
G1 X42.505Y22.007
G1 X42.284Y21.86
G1 X42.088Y21.686
G1 X41.917Y21.491
G1 X41.773Y21.275
G1 X41.658Y21.043
G1 X41.574Y20.797
G1 X41.523Y20.54
G1 X41.505Y20.275
; Layer C00 Pass 26 of 30
G1 X41.523Y20.01
G1 X41.574Y19.753
G1 X41.658Y19.507
G1 X41.773Y19.275
G1 X41.917Y19.059
G1 X42.088Y18.864
G1 X42.284Y18.69
G1 X42.505Y18.543
G1 X42.743Y18.425
G1 X42.991Y18.342
G1 X43.247Y18.291
G1 X43.505Y18.275
G1 X43.763Y18.291
G1 X44.019Y18.342
G1 X44.267Y18.425
G1 X44.505Y18.543
G1 X44.726Y18.69
G1 X44.922Y18.864
G1 X45.093Y19.059
G1 X45.237Y19.275
G1 X45.352Y19.507
G1 X45.436Y19.753
G1 X45.487Y20.01
G1 X45.505Y20.275
G1 X45.487Y20.54
G1 X45.436Y20.797
G1 X45.352Y21.043
G1 X45.237Y21.275
G1 X45.093Y21.491
G1 X44.922Y21.686
G1 X44.726Y21.86
G1 X44.505Y22.007
G1 X44.267Y22.125
G1 X44.019Y22.208
G1 X43.763Y22.259
G1 X43.505Y22.275
G1 X43.247Y22.259
G1 X42.991Y22.208
G1 X42.743Y22.125
G1 X42.505Y22.007
G1 X42.284Y21.86
G1 X42.088Y21.686
G1 X41.917Y21.491
G1 X41.773Y21.275
G1 X41.658Y21.043
G1 X41.574Y20.797
G1 X41.523Y20.54
G1 X41.505Y20.275
; Layer C00 Pass 27 of 30
G1 X41.523Y20.01
G1 X41.574Y19.753
G1 X41.658Y19.507
G1 X41.773Y19.275
G1 X41.917Y19.059
G1 X42.088Y18.864
G1 X42.284Y18.69
G1 X42.505Y18.543
G1 X42.743Y18.425
G1 X42.991Y18.342
G1 X43.247Y18.291
G1 X43.505Y18.275
G1 X43.763Y18.291
G1 X44.019Y18.342
G1 X44.267Y18.425
G1 X44.505Y18.543
G1 X44.726Y18.69
G1 X44.922Y18.864
G1 X45.093Y19.059
G1 X45.237Y19.275
G1 X45.352Y19.507
G1 X45.436Y19.753
G1 X45.487Y20.01
G1 X45.505Y20.275
G1 X45.487Y20.54
G1 X45.436Y20.797
G1 X45.352Y21.043
G1 X45.237Y21.275
G1 X45.093Y21.491
G1 X44.922Y21.686
G1 X44.726Y21.86
G1 X44.505Y22.007
G1 X44.267Y22.125
G1 X44.019Y22.208
G1 X43.763Y22.259
G1 X43.505Y22.275
G1 X43.247Y22.259
G1 X42.991Y22.208
G1 X42.743Y22.125
G1 X42.505Y22.007
G1 X42.284Y21.86
G1 X42.088Y21.686
G1 X41.917Y21.491
G1 X41.773Y21.275
G1 X41.658Y21.043
G1 X41.574Y20.797
G1 X41.523Y20.54
G1 X41.505Y20.275
; Layer C00 Pass 28 of 30
G1 X41.523Y20.01
G1 X41.574Y19.753
G1 X41.658Y19.507
G1 X41.773Y19.275
G1 X41.917Y19.059
G1 X42.088Y18.864
G1 X42.284Y18.69
G1 X42.505Y18.543
G1 X42.743Y18.425
G1 X42.991Y18.342
G1 X43.247Y18.291
G1 X43.505Y18.275
G1 X43.763Y18.291
G1 X44.019Y18.342
G1 X44.267Y18.425
G1 X44.505Y18.543
G1 X44.726Y18.69
G1 X44.922Y18.864
G1 X45.093Y19.059
G1 X45.237Y19.275
G1 X45.352Y19.507
G1 X45.436Y19.753
G1 X45.487Y20.01
G1 X45.505Y20.275
G1 X45.487Y20.54
G1 X45.436Y20.797
G1 X45.352Y21.043
G1 X45.237Y21.275
G1 X45.093Y21.491
G1 X44.922Y21.686
G1 X44.726Y21.86
G1 X44.505Y22.007
G1 X44.267Y22.125
G1 X44.019Y22.208
G1 X43.763Y22.259
G1 X43.505Y22.275
G1 X43.247Y22.259
G1 X42.991Y22.208
G1 X42.743Y22.125
G1 X42.505Y22.007
G1 X42.284Y21.86
G1 X42.088Y21.686
G1 X41.917Y21.491
G1 X41.773Y21.275
G1 X41.658Y21.043
G1 X41.574Y20.797
G1 X41.523Y20.54
G1 X41.505Y20.275
; Layer C00 Pass 29 of 30
G1 X41.523Y20.01
G1 X41.574Y19.753
G1 X41.658Y19.507
G1 X41.773Y19.275
G1 X41.917Y19.059
G1 X42.088Y18.864
G1 X42.284Y18.69
G1 X42.505Y18.543
G1 X42.743Y18.425
G1 X42.991Y18.342
G1 X43.247Y18.291
G1 X43.505Y18.275
G1 X43.763Y18.291
G1 X44.019Y18.342
G1 X44.267Y18.425
G1 X44.505Y18.543
G1 X44.726Y18.69
G1 X44.922Y18.864
G1 X45.093Y19.059
G1 X45.237Y19.275
G1 X45.352Y19.507
G1 X45.436Y19.753
G1 X45.487Y20.01
G1 X45.505Y20.275
G1 X45.487Y20.54
G1 X45.436Y20.797
G1 X45.352Y21.043
G1 X45.237Y21.275
G1 X45.093Y21.491
G1 X44.922Y21.686
G1 X44.726Y21.86
G1 X44.505Y22.007
G1 X44.267Y22.125
G1 X44.019Y22.208
G1 X43.763Y22.259
G1 X43.505Y22.275
G1 X43.247Y22.259
G1 X42.991Y22.208
G1 X42.743Y22.125
G1 X42.505Y22.007
G1 X42.284Y21.86
G1 X42.088Y21.686
G1 X41.917Y21.491
G1 X41.773Y21.275
G1 X41.658Y21.043
G1 X41.574Y20.797
G1 X41.523Y20.54
G1 X41.505Y20.275
; Layer C00 Pass 30 of 30
G1 X41.523Y20.01
G1 X41.574Y19.753
G1 X41.658Y19.507
G1 X41.773Y19.275
G1 X41.917Y19.059
G1 X42.088Y18.864
G1 X42.284Y18.69
G1 X42.505Y18.543
G1 X42.743Y18.425
G1 X42.991Y18.342
G1 X43.247Y18.291
G1 X43.505Y18.275
G1 X43.763Y18.291
G1 X44.019Y18.342
G1 X44.267Y18.425
G1 X44.505Y18.543
G1 X44.726Y18.69
G1 X44.922Y18.864
G1 X45.093Y19.059
G1 X45.237Y19.275
G1 X45.352Y19.507
G1 X45.436Y19.753
G1 X45.487Y20.01
G1 X45.505Y20.275
G1 X45.487Y20.54
G1 X45.436Y20.797
G1 X45.352Y21.043
G1 X45.237Y21.275
G1 X45.093Y21.491
G1 X44.922Y21.686
G1 X44.726Y21.86
G1 X44.505Y22.007
G1 X44.267Y22.125
G1 X44.019Y22.208
G1 X43.763Y22.259
G1 X43.505Y22.275
G1 X43.247Y22.259
G1 X42.991Y22.208
G1 X42.743Y22.125
G1 X42.505Y22.007
G1 X42.284Y21.86
G1 X42.088Y21.686
G1 X41.917Y21.491
G1 X41.773Y21.275
G1 X41.658Y21.043
G1 X41.574Y20.797
G1 X41.523Y20.54
G1 X41.505Y20.275
G0 X54.305Y20.275
; Layer C00 Pass 1 of 30
G1 X54.323Y20.01
G1 X54.374Y19.753
G1 X54.458Y19.507
G1 X54.573Y19.275
G1 X54.717Y19.059
G1 X54.888Y18.864
G1 X55.084Y18.69
G1 X55.305Y18.543
G1 X55.543Y18.425
G1 X55.791Y18.342
G1 X56.047Y18.291
G1 X56.305Y18.275
G1 X56.563Y18.291
G1 X56.819Y18.342
G1 X57.067Y18.425
G1 X57.305Y18.543
G1 X57.526Y18.69
G1 X57.722Y18.864
G1 X57.893Y19.059
G1 X58.037Y19.275
G1 X58.152Y19.507
G1 X58.236Y19.753
G1 X58.287Y20.01
G1 X58.305Y20.275
G1 X58.287Y20.54
G1 X58.236Y20.797
G1 X58.152Y21.043
G1 X58.037Y21.275
G1 X57.893Y21.491
G1 X57.722Y21.686
G1 X57.526Y21.86
G1 X57.305Y22.007
G1 X57.067Y22.125
G1 X56.819Y22.208
G1 X56.563Y22.259
G1 X56.305Y22.275
G1 X56.047Y22.259
G1 X55.791Y22.208
G1 X55.543Y22.125
G1 X55.305Y22.007
G1 X55.084Y21.86
G1 X54.888Y21.686
G1 X54.717Y21.491
G1 X54.573Y21.275
G1 X54.458Y21.043
G1 X54.374Y20.797
G1 X54.323Y20.54
G1 X54.305Y20.275
; Layer C00 Pass 2 of 30
G1 X54.323Y20.01
G1 X54.374Y19.753
G1 X54.458Y19.507
G1 X54.573Y19.275
G1 X54.717Y19.059
G1 X54.888Y18.864
G1 X55.084Y18.69
G1 X55.305Y18.543
G1 X55.543Y18.425
G1 X55.791Y18.342
G1 X56.047Y18.291
G1 X56.305Y18.275
G1 X56.563Y18.291
G1 X56.819Y18.342
G1 X57.067Y18.425
G1 X57.305Y18.543
G1 X57.526Y18.69
G1 X57.722Y18.864
G1 X57.893Y19.059
G1 X58.037Y19.275
G1 X58.152Y19.507
G1 X58.236Y19.753
G1 X58.287Y20.01
G1 X58.305Y20.275
G1 X58.287Y20.54
G1 X58.236Y20.797
G1 X58.152Y21.043
G1 X58.037Y21.275
G1 X57.893Y21.491
G1 X57.722Y21.686
G1 X57.526Y21.86
G1 X57.305Y22.007
G1 X57.067Y22.125
G1 X56.819Y22.208
G1 X56.563Y22.259
G1 X56.305Y22.275
G1 X56.047Y22.259
G1 X55.791Y22.208
G1 X55.543Y22.125
G1 X55.305Y22.007
G1 X55.084Y21.86
G1 X54.888Y21.686
G1 X54.717Y21.491
G1 X54.573Y21.275
G1 X54.458Y21.043
G1 X54.374Y20.797
G1 X54.323Y20.54
G1 X54.305Y20.275
; Layer C00 Pass 3 of 30
G1 X54.323Y20.01
G1 X54.374Y19.753
G1 X54.458Y19.507
G1 X54.573Y19.275
G1 X54.717Y19.059
G1 X54.888Y18.864
G1 X55.084Y18.69
G1 X55.305Y18.543
G1 X55.543Y18.425
G1 X55.791Y18.342
G1 X56.047Y18.291
G1 X56.305Y18.275
G1 X56.563Y18.291
G1 X56.819Y18.342
G1 X57.067Y18.425
G1 X57.305Y18.543
G1 X57.526Y18.69
G1 X57.722Y18.864
G1 X57.893Y19.059
G1 X58.037Y19.275
G1 X58.152Y19.507
G1 X58.236Y19.753
G1 X58.287Y20.01
G1 X58.305Y20.275
G1 X58.287Y20.54
G1 X58.236Y20.797
G1 X58.152Y21.043
G1 X58.037Y21.275
G1 X57.893Y21.491
G1 X57.722Y21.686
G1 X57.526Y21.86
G1 X57.305Y22.007
G1 X57.067Y22.125
G1 X56.819Y22.208
G1 X56.563Y22.259
G1 X56.305Y22.275
G1 X56.047Y22.259
G1 X55.791Y22.208
G1 X55.543Y22.125
G1 X55.305Y22.007
G1 X55.084Y21.86
G1 X54.888Y21.686
G1 X54.717Y21.491
G1 X54.573Y21.275
G1 X54.458Y21.043
G1 X54.374Y20.797
G1 X54.323Y20.54
G1 X54.305Y20.275
; Layer C00 Pass 4 of 30
G1 X54.323Y20.01
G1 X54.374Y19.753
G1 X54.458Y19.507
G1 X54.573Y19.275
G1 X54.717Y19.059
G1 X54.888Y18.864
G1 X55.084Y18.69
G1 X55.305Y18.543
G1 X55.543Y18.425
G1 X55.791Y18.342
G1 X56.047Y18.291
G1 X56.305Y18.275
G1 X56.563Y18.291
G1 X56.819Y18.342
G1 X57.067Y18.425
G1 X57.305Y18.543
G1 X57.526Y18.69
G1 X57.722Y18.864
G1 X57.893Y19.059
G1 X58.037Y19.275
G1 X58.152Y19.507
G1 X58.236Y19.753
G1 X58.287Y20.01
G1 X58.305Y20.275
G1 X58.287Y20.54
G1 X58.236Y20.797
G1 X58.152Y21.043
G1 X58.037Y21.275
G1 X57.893Y21.491
G1 X57.722Y21.686
G1 X57.526Y21.86
G1 X57.305Y22.007
G1 X57.067Y22.125
G1 X56.819Y22.208
G1 X56.563Y22.259
G1 X56.305Y22.275
G1 X56.047Y22.259
G1 X55.791Y22.208
G1 X55.543Y22.125
G1 X55.305Y22.007
G1 X55.084Y21.86
G1 X54.888Y21.686
G1 X54.717Y21.491
G1 X54.573Y21.275
G1 X54.458Y21.043
G1 X54.374Y20.797
G1 X54.323Y20.54
G1 X54.305Y20.275
; Layer C00 Pass 5 of 30
G1 X54.323Y20.01
G1 X54.374Y19.753
G1 X54.458Y19.507
G1 X54.573Y19.275
G1 X54.717Y19.059
G1 X54.888Y18.864
G1 X55.084Y18.69
G1 X55.305Y18.543
G1 X55.543Y18.425
G1 X55.791Y18.342
G1 X56.047Y18.291
G1 X56.305Y18.275
G1 X56.563Y18.291
G1 X56.819Y18.342
G1 X57.067Y18.425
G1 X57.305Y18.543
G1 X57.526Y18.69
G1 X57.722Y18.864
G1 X57.893Y19.059
G1 X58.037Y19.275
G1 X58.152Y19.507
G1 X58.236Y19.753
G1 X58.287Y20.01
G1 X58.305Y20.275
G1 X58.287Y20.54
G1 X58.236Y20.797
G1 X58.152Y21.043
G1 X58.037Y21.275
G1 X57.893Y21.491
G1 X57.722Y21.686
G1 X57.526Y21.86
G1 X57.305Y22.007
G1 X57.067Y22.125
G1 X56.819Y22.208
G1 X56.563Y22.259
G1 X56.305Y22.275
G1 X56.047Y22.259
G1 X55.791Y22.208
G1 X55.543Y22.125
G1 X55.305Y22.007
G1 X55.084Y21.86
G1 X54.888Y21.686
G1 X54.717Y21.491
G1 X54.573Y21.275
G1 X54.458Y21.043
G1 X54.374Y20.797
G1 X54.323Y20.54
G1 X54.305Y20.275
; Layer C00 Pass 6 of 30
G1 X54.323Y20.01
G1 X54.374Y19.753
G1 X54.458Y19.507
G1 X54.573Y19.275
G1 X54.717Y19.059
G1 X54.888Y18.864
G1 X55.084Y18.69
G1 X55.305Y18.543
G1 X55.543Y18.425
G1 X55.791Y18.342
G1 X56.047Y18.291
G1 X56.305Y18.275
G1 X56.563Y18.291
G1 X56.819Y18.342
G1 X57.067Y18.425
G1 X57.305Y18.543
G1 X57.526Y18.69
G1 X57.722Y18.864
G1 X57.893Y19.059
G1 X58.037Y19.275
G1 X58.152Y19.507
G1 X58.236Y19.753
G1 X58.287Y20.01
G1 X58.305Y20.275
G1 X58.287Y20.54
G1 X58.236Y20.797
G1 X58.152Y21.043
G1 X58.037Y21.275
G1 X57.893Y21.491
G1 X57.722Y21.686
G1 X57.526Y21.86
G1 X57.305Y22.007
G1 X57.067Y22.125
G1 X56.819Y22.208
G1 X56.563Y22.259
G1 X56.305Y22.275
G1 X56.047Y22.259
G1 X55.791Y22.208
G1 X55.543Y22.125
G1 X55.305Y22.007
G1 X55.084Y21.86
G1 X54.888Y21.686
G1 X54.717Y21.491
G1 X54.573Y21.275
G1 X54.458Y21.043
G1 X54.374Y20.797
G1 X54.323Y20.54
G1 X54.305Y20.275
; Layer C00 Pass 7 of 30
G1 X54.323Y20.01
G1 X54.374Y19.753
G1 X54.458Y19.507
G1 X54.573Y19.275
G1 X54.717Y19.059
G1 X54.888Y18.864
G1 X55.084Y18.69
G1 X55.305Y18.543
G1 X55.543Y18.425
G1 X55.791Y18.342
G1 X56.047Y18.291
G1 X56.305Y18.275
G1 X56.563Y18.291
G1 X56.819Y18.342
G1 X57.067Y18.425
G1 X57.305Y18.543
G1 X57.526Y18.69
G1 X57.722Y18.864
G1 X57.893Y19.059
G1 X58.037Y19.275
G1 X58.152Y19.507
G1 X58.236Y19.753
G1 X58.287Y20.01
G1 X58.305Y20.275
G1 X58.287Y20.54
G1 X58.236Y20.797
G1 X58.152Y21.043
G1 X58.037Y21.275
G1 X57.893Y21.491
G1 X57.722Y21.686
G1 X57.526Y21.86
G1 X57.305Y22.007
G1 X57.067Y22.125
G1 X56.819Y22.208
G1 X56.563Y22.259
G1 X56.305Y22.275
G1 X56.047Y22.259
G1 X55.791Y22.208
G1 X55.543Y22.125
G1 X55.305Y22.007
G1 X55.084Y21.86
G1 X54.888Y21.686
G1 X54.717Y21.491
G1 X54.573Y21.275
G1 X54.458Y21.043
G1 X54.374Y20.797
G1 X54.323Y20.54
G1 X54.305Y20.275
; Layer C00 Pass 8 of 30
G1 X54.323Y20.01
G1 X54.374Y19.753
G1 X54.458Y19.507
G1 X54.573Y19.275
G1 X54.717Y19.059
G1 X54.888Y18.864
G1 X55.084Y18.69
G1 X55.305Y18.543
G1 X55.543Y18.425
G1 X55.791Y18.342
G1 X56.047Y18.291
G1 X56.305Y18.275
G1 X56.563Y18.291
G1 X56.819Y18.342
G1 X57.067Y18.425
G1 X57.305Y18.543
G1 X57.526Y18.69
G1 X57.722Y18.864
G1 X57.893Y19.059
G1 X58.037Y19.275
G1 X58.152Y19.507
G1 X58.236Y19.753
G1 X58.287Y20.01
G1 X58.305Y20.275
G1 X58.287Y20.54
G1 X58.236Y20.797
G1 X58.152Y21.043
G1 X58.037Y21.275
G1 X57.893Y21.491
G1 X57.722Y21.686
G1 X57.526Y21.86
G1 X57.305Y22.007
G1 X57.067Y22.125
G1 X56.819Y22.208
G1 X56.563Y22.259
G1 X56.305Y22.275
G1 X56.047Y22.259
G1 X55.791Y22.208
G1 X55.543Y22.125
G1 X55.305Y22.007
G1 X55.084Y21.86
G1 X54.888Y21.686
G1 X54.717Y21.491
G1 X54.573Y21.275
G1 X54.458Y21.043
G1 X54.374Y20.797
G1 X54.323Y20.54
G1 X54.305Y20.275
; Layer C00 Pass 9 of 30
G1 X54.323Y20.01
G1 X54.374Y19.753
G1 X54.458Y19.507
G1 X54.573Y19.275
G1 X54.717Y19.059
G1 X54.888Y18.864
G1 X55.084Y18.69
G1 X55.305Y18.543
G1 X55.543Y18.425
G1 X55.791Y18.342
G1 X56.047Y18.291
G1 X56.305Y18.275
G1 X56.563Y18.291
G1 X56.819Y18.342
G1 X57.067Y18.425
G1 X57.305Y18.543
G1 X57.526Y18.69
G1 X57.722Y18.864
G1 X57.893Y19.059
G1 X58.037Y19.275
G1 X58.152Y19.507
G1 X58.236Y19.753
G1 X58.287Y20.01
G1 X58.305Y20.275
G1 X58.287Y20.54
G1 X58.236Y20.797
G1 X58.152Y21.043
G1 X58.037Y21.275
G1 X57.893Y21.491
G1 X57.722Y21.686
G1 X57.526Y21.86
G1 X57.305Y22.007
G1 X57.067Y22.125
G1 X56.819Y22.208
G1 X56.563Y22.259
G1 X56.305Y22.275
G1 X56.047Y22.259
G1 X55.791Y22.208
G1 X55.543Y22.125
G1 X55.305Y22.007
G1 X55.084Y21.86
G1 X54.888Y21.686
G1 X54.717Y21.491
G1 X54.573Y21.275
G1 X54.458Y21.043
G1 X54.374Y20.797
G1 X54.323Y20.54
G1 X54.305Y20.275
; Layer C00 Pass 10 of 30
G1 X54.323Y20.01
G1 X54.374Y19.753
G1 X54.458Y19.507
G1 X54.573Y19.275
G1 X54.717Y19.059
G1 X54.888Y18.864
G1 X55.084Y18.69
G1 X55.305Y18.543
G1 X55.543Y18.425
G1 X55.791Y18.342
G1 X56.047Y18.291
G1 X56.305Y18.275
G1 X56.563Y18.291
G1 X56.819Y18.342
G1 X57.067Y18.425
G1 X57.305Y18.543
G1 X57.526Y18.69
G1 X57.722Y18.864
G1 X57.893Y19.059
G1 X58.037Y19.275
G1 X58.152Y19.507
G1 X58.236Y19.753
G1 X58.287Y20.01
G1 X58.305Y20.275
G1 X58.287Y20.54
G1 X58.236Y20.797
G1 X58.152Y21.043
G1 X58.037Y21.275
G1 X57.893Y21.491
G1 X57.722Y21.686
G1 X57.526Y21.86
G1 X57.305Y22.007
G1 X57.067Y22.125
G1 X56.819Y22.208
G1 X56.563Y22.259
G1 X56.305Y22.275
G1 X56.047Y22.259
G1 X55.791Y22.208
G1 X55.543Y22.125
G1 X55.305Y22.007
G1 X55.084Y21.86
G1 X54.888Y21.686
G1 X54.717Y21.491
G1 X54.573Y21.275
G1 X54.458Y21.043
G1 X54.374Y20.797
G1 X54.323Y20.54
G1 X54.305Y20.275
; Layer C00 Pass 11 of 30
G1 X54.323Y20.01
G1 X54.374Y19.753
G1 X54.458Y19.507
G1 X54.573Y19.275
G1 X54.717Y19.059
G1 X54.888Y18.864
G1 X55.084Y18.69
G1 X55.305Y18.543
G1 X55.543Y18.425
G1 X55.791Y18.342
G1 X56.047Y18.291
G1 X56.305Y18.275
G1 X56.563Y18.291
G1 X56.819Y18.342
G1 X57.067Y18.425
G1 X57.305Y18.543
G1 X57.526Y18.69
G1 X57.722Y18.864
G1 X57.893Y19.059
G1 X58.037Y19.275
G1 X58.152Y19.507
G1 X58.236Y19.753
G1 X58.287Y20.01
G1 X58.305Y20.275
G1 X58.287Y20.54
G1 X58.236Y20.797
G1 X58.152Y21.043
G1 X58.037Y21.275
G1 X57.893Y21.491
G1 X57.722Y21.686
G1 X57.526Y21.86
G1 X57.305Y22.007
G1 X57.067Y22.125
G1 X56.819Y22.208
G1 X56.563Y22.259
G1 X56.305Y22.275
G1 X56.047Y22.259
G1 X55.791Y22.208
G1 X55.543Y22.125
G1 X55.305Y22.007
G1 X55.084Y21.86
G1 X54.888Y21.686
G1 X54.717Y21.491
G1 X54.573Y21.275
G1 X54.458Y21.043
G1 X54.374Y20.797
G1 X54.323Y20.54
G1 X54.305Y20.275
; Layer C00 Pass 12 of 30
G1 X54.323Y20.01
G1 X54.374Y19.753
G1 X54.458Y19.507
G1 X54.573Y19.275
G1 X54.717Y19.059
G1 X54.888Y18.864
G1 X55.084Y18.69
G1 X55.305Y18.543
G1 X55.543Y18.425
G1 X55.791Y18.342
G1 X56.047Y18.291
G1 X56.305Y18.275
G1 X56.563Y18.291
G1 X56.819Y18.342
G1 X57.067Y18.425
G1 X57.305Y18.543
G1 X57.526Y18.69
G1 X57.722Y18.864
G1 X57.893Y19.059
G1 X58.037Y19.275
G1 X58.152Y19.507
G1 X58.236Y19.753
G1 X58.287Y20.01
G1 X58.305Y20.275
G1 X58.287Y20.54
G1 X58.236Y20.797
G1 X58.152Y21.043
G1 X58.037Y21.275
G1 X57.893Y21.491
G1 X57.722Y21.686
G1 X57.526Y21.86
G1 X57.305Y22.007
G1 X57.067Y22.125
G1 X56.819Y22.208
G1 X56.563Y22.259
G1 X56.305Y22.275
G1 X56.047Y22.259
G1 X55.791Y22.208
G1 X55.543Y22.125
G1 X55.305Y22.007
G1 X55.084Y21.86
G1 X54.888Y21.686
G1 X54.717Y21.491
G1 X54.573Y21.275
G1 X54.458Y21.043
G1 X54.374Y20.797
G1 X54.323Y20.54
G1 X54.305Y20.275
; Layer C00 Pass 13 of 30
G1 X54.323Y20.01
G1 X54.374Y19.753
G1 X54.458Y19.507
G1 X54.573Y19.275
G1 X54.717Y19.059
G1 X54.888Y18.864
G1 X55.084Y18.69
G1 X55.305Y18.543
G1 X55.543Y18.425
G1 X55.791Y18.342
G1 X56.047Y18.291
G1 X56.305Y18.275
G1 X56.563Y18.291
G1 X56.819Y18.342
G1 X57.067Y18.425
G1 X57.305Y18.543
G1 X57.526Y18.69
G1 X57.722Y18.864
G1 X57.893Y19.059
